**kern	**dynam	**kern	**dynam	**kern	**dynam	**kern	**dynam	**mxhm
*part4	*part4	*part3	*part3	*part2	*part2	*part1	*part1	*part1
*staff4	*	*staff3	*	*staff2	*	*staff1	*	*
*I"Cello	*	*I"Viola	*	*I"2nd Violin	*	*I"1st Violin	*	*
*clefF4	*	*clefC3	*	*clefG2	*	*clefG2	*	*
*k[b-e-a-d-g-c-f-]	*	*k[b-e-a-d-g-c-f-]	*	*k[b-e-a-d-g-c-f-]	*	*k[b-e-a-d-g-c-f-]	*	*
*a-:	*	*a-:	*	*a-:	*	*a-:	*	*
*M4/4	*	*M4/4	*	*M4/4	*	*M4/4	*	*
*met(c)	*	*met(c)	*	*met(c)	*	*met(c)	*	*
=1	=1	=1	=1	=1	=1	=1	=1	=1
!	!LO:DY:a	!	!	!	!LO:DY:a	!LO:TX:a:B:t=Allegro con brio	!	!
(16AA-LL	f f	(16A-LL	.	(16a-LL	f f	(16a-LL	.	i
16BB-	.	16B-	.	16b-	.	16b-	.	.
16C-	.	16c-	.	16cc-	.	16cc-	.	.
16BB-JJ)	.	16B-JJ)	.	16b-JJ)	.	16b-JJ)	.	.
8AA-'L	.	8A-'L	.	8a-'L	.	8a-'L	.	.
8GG-'J	.	8G-'J	.	8g-'J	.	8g-'J	.	.
8FF-'L	.	8F-'L	.	8f-'L	.	8f-'L	.	.
8EE-'	.	8E-'	.	8e-'	.	8e-'	.	V
8FF'	.	8F'	.	8f'	.	8f'	.	.
8GG'J	.	8G'J	.	8g'J	.	8g'J	.	.
=2	=2	=2	=2	=2	=2	=2	=2	=2
4AA-	.	4A-	.	4a-	.	4a-	.	i
4r	.	4r	.	4r	.	4r	.	.
2r	.	2r	.	2r	.	2r	.	.
=3	=3	=3	=3	=3	=3	=3	=3	=3
4E-	.	4G	.	4B-	.	8r	.	V[V6
.	.	.	.	.	.	16r	.	.
.	.	.	.	.	.	(16ee-	.	.
8r	.	8r	.	8r	.	(4eee-)	.	.
16r	.	16r	.	16r	.	.	.	.
16E-	.	16G	.	16B-	.	.	.	.
4E-	.	4A-	.	4c-	.	8eee-L)	.	i
.	.	.	.	.	.	16r	.	.
.	.	.	.	.	.	(16eee-Jk	.	.
8r	.	8r	.	8r	.	(4ee-)	.	.
16r	.	16r	.	16r	.	.	.	.
16E-	.	(16A-	.	(16c-	.	.	.	.
=4	=4	=4	=4	=4	=4	=4	=4	=4
8E-L	.	8GL)	.	8B-L)	.	8ee-L)	.	V6]
16r	.	16r	.	16r	.	16r	.	.
(16E-Jk	.	(16B-Jk	.	(16gJk	.	(16ee-Jk	.	.
8A-L)	.	8c-L)	.	8a-L)	.	8e-L)	.	i
16r	.	16r	.	16r	.	16r	.	.
(16A-Jk	.	(16c-Jk	.	(16a-Jk	.	(16e-Jk	.	.
8E-L)	.	8B-L)	.	8gL)	.	8ee-L)	.	V
16r	.	16r	.	16r	.	16r	.	.
(16E-Jk	.	(16gJk	.	(16b-Jk	.	(16ee-Jk	.	.
8AA-L)	.	8a-L)	.	8cc-L)	.	8eee-L)	.	i
16r	.	16r	.	16r	.	16r	.	.
(16AA-Jk	.	(16a-Jk	.	(16cc-Jk	.	(16ee-Jk	.	.
=5	=5	=5	=5	=5	=5	=5	=5	=5
8EE-L)	.	8gL)	.	8b-L)	.	8eee-L)	.	V
16r	.	16r	.	16r	.	16r	.	.
(16E-Jk	.	(16e-Jk	.	(16e-Jk	.	(16ee-Jk	.	.
4E-)	.	4E-)	.	4e-)	.	4e-)	.	.
2r	.	2r	.	2r	.	2r	.	.
=6	=6	=6	=6	=6	=6	=6	=6	=6
(16B--XLL	.	4r	.	4r	.	4r	.	.bII
16c-	.	.	.	.	.	.	.	.
16d-	.	.	.	.	.	.	.	.
16c-JJ)	.	.	.	.	.	.	.	.
!	!	!	!LO:DY:a	!	!	!	!	!
8B--'L	sf >	2.b--X	sf sf > ]]	[2.dd-	>]	[2.ff-	sf > ]]	.
8A-'J	.	.	.	.	.	.	.	.
8G-'L	.	.	.	.	.	.	.	.
8F-'	.	.	.	.	.	.	.	.
8G-'	.	.	.	.	.	.	.	.
8A-'J	]]	.	.	.	.	.	.	.
=7	=7	=7	=7	=7	=7	=7	=7	=7
1B--X	p	(2f-	p	(2dd-]	p	(2ff-]	p	.
.	.	2d-)	.	2b--X)	.	2bb--X	.	.
=8	=8	=8	=8	=8	=8	=8	=8	=8
1c-	.	1d	.	1a-	.	2.dd)	.	#viio2/V
.	.	.	.	.	.	(4ff-	.	.
=9	=9	=9	=9	=9	=9	=9	=9	=9
1B-	.	1d-	.	1g	.	(2ff-)	.	V43(2)
.	.	.	.	.	.	2ee-)	.	V43
=10	=10	=10	=10	=10	=10	=10	=10	=10
12EE-L	<	1E- 1B-	< > ]]	1g 1dd-	< > ]]	2.ee-	<	V7
12GG	.	.	.	.	.	.	.	.
12BB-J	.	.	.	.	.	.	.	.
16D-LL	.	.	.	.	.	.	.	.
16E-	.	.	.	.	.	.	.	.
16G	[ >	.	.	.	.	.	.	.
16B-JJ	.	.	.	.	.	.	.	.
4d-	.	.	.	.	.	.	.	.
4r	]	.	.	.	.	[4aa-	>]	.
=11	=11	=11	=11	=11	=11	=11	=11	=11
1EE- 1BB-	.	1d-	]	1f-	]	(2aa-]	]	V7(94)
.	.	.	.	.	.	2gg)	.	V7(9)
=12	=12	=12	=12	=12	=12	=12	=12	=12
12EE-L	<	((1E- 1d-	> < [[	1g 1ff-	> < [[	2.gg	<	.
12GG	.	.	.	.	.	.	.	.
12BB-J	.	.	.	.	.	.	.	.
16D-LL	.	.	.	.	.	.	.	.
16E-	.	.	.	.	.	.	.	.
16G	.	.	.	.	.	.	.	.
16B-JJ	.	.	.	.	.	.	.	.
12d-L	.	.	.	.	.	.	.	.
12e-	[ >	.	.	.	.	.	.	.
12gJ	.	.	.	.	.	.	.	.
[4b-	]]	.	.	.	.	(4fff-	>]	.
=13	=13	=13	=13	=13	=13	=13	=13	=13
4b-]	.	4E-)) 4d-	[	4g	[	(2.eee-)	]	V7
(4b-	.	(16E-LL	.	(4g	.	.	.	.
.	.	16F	.	.	.	.	.	.
.	.	16G	.	.	.	.	.	.
.	.	16FJJ)	.	.	.	.	.	.
4g	.	4E-	.	4b-	.	.	.	.
4b-)	.	4r	.	4e-)	.	4ddd-	.	.
=14	=14	=14	=14	=14	=14	=14	=14	=14
4a-	.	4A-	.	(4e-	.	4ccc-	.	i
(4a-	.	(4A-	.	4c-	.	4aa-	.	.
4g	.	4B-	.	4d-	.	4ff-	.	vii%65
8a-L	.	8c-L	.	8e-L	.	8ee-L	.	i
8cc-J)	.	8A-J)	.	8a-J)	.	8fff-J)	.	.
=15	=15	=15	=15	=15	=15	=15	=15	=15
4b-	.	4E-	.	4g	.	(2.eee-	.	V
(4b-	.	(16E-LL	.	(4g	.	.	.	.
.	.	16F	.	.	.	.	.	.
.	.	16G	.	.	.	.	.	.
.	.	16FJJ)	.	.	.	.	.	.
4g	.	4E-	.	4b-	.	.	.	.
4b-)	.	4r	.	4g)	.	4ddd-)	.	.
=16	=16	=16	=16	=16	=16	=16	=16	=16
!	!	!LO:TX:a:i:t=ten.	!	!	!	!	!	!
(4a-	.	4F-	.	4a-	.	(2ccc-	.	VI
4A-	.	(16F-LL	.	(4a-	.	.	.	.
.	.	16G-	.	.	.	.	.	.
.	.	16A-	.	.	.	.	.	.
.	.	16G-JJ)	.	.	.	.	.	.
!	!	!LO:TX:a:i:t=ten.	!	!	!	!	!	!
4B-	.	4F-	.	4b-	.	2aa-)	.	VI
4c-)	.	(16F-LL	.	4cc-)	.	.	.	.
.	.	16G-	.	.	.	.	.	.
.	.	16A-	.	.	.	.	.	.
.	.	16F-JJ)	.	.	.	.	.	.
=17	=17	=17	=17	=17	=17	=17	=17	=17
!LO:TX:b:i:t=cresc.	!	!LO:TX:b:i:t=cresc.	!	!LO:TX:b:i:t=cresc.	!	!LO:TX:b:i:t=cresc.	!	!
2BB-	.	4F	.	(4d	.	2dd	.	V7/V
.	.	(16FLL	.	4a-	.	.	.	.
.	.	16G	.	.	.	.	.	.
.	.	16A-	.	.	.	.	.	.
.	.	16FJJ)	.	.	.	.	.	.
2EE-	.	4B-	.	4g	.	4..ee-	.	V
.	.	(16E-LL	.	4ee-)	.	.	.	.
.	.	16F	.	.	.	.	.	.
.	.	16G	.	.	.	.	.	.
.	.	16E-JJ)	.	.	.	16ee-	.	.
=18	=18	=18	=18	=18	=18	=18	=18	=18
!	!	!	!LO:DY:a	!	!LO:DY:a	!	!	!
(16AA-LL	f	(16A-LL	f f	(16a-LL	f	(16a-LL	.	i\\
16BB-	.	16B-	.	16b-	.	16b-	.	.
16C-	.	16c-	.	16cc-	.	16cc-	.	.
16BB-JJ)	.	16B-JJ)	.	16b-JJ)	.	16b-JJ)	.	.
8AA-'L	.	8A-'L	.	8a-'L	.	8a-'L	.	i
8GG-'J	.	8G-'J	.	8g-'J	.	8g-'J	.	.
8FF-'L	.	8F-'L	.	8f-'L	.	8f-'L	.	.
8EE-'	.	8E-'	.	8e-'	.	8e-'	.	V
8FF'	.	8F'	.	8f'	.	8f'	.	.
8GG'J	.	8G'J	.	8g'J	.	8g'J	.	.
=19	=19	=19	=19	=19	=19	=19	=19	=19
!	!LO:DY:a	!	!LO:DY:a	!	!LO:DY:a	!	!	!
(16AA-LL	sf sf	(16A-LL	sf	(16a-LL	sf	(16a-LL	.	i
16BB-	.	16B-	.	16b-	.	16b-	.	.
16C-	.	16c-	.	16cc-	.	16cc-	.	.
16BB-JJ)	.	16B-JJ)	.	16b-JJ)	.	16b-JJ)	.	.
4AA-'	.	4A-'	.	4a-'	.	4a-'	.	.
!	!	!	!LO:DY:a	!	!LO:DY:a	!	!	!
(16BB--XLL	sf	(16B--XLL	sf sf	(16b--XLL	sf	(16b--XLL	.	.bII
16C-	.	16c-	.	16cc-	.	16cc-	.	.
16D-	.	16d-	.	16dd-	.	16dd-	.	.
16C-JJ)	.	16c-JJ)	.	16cc-JJ)	.	16cc-JJ)	.	.
4BB--'	.	4B--'	.	4b--'	.	4b--'	.	.
=20	=20	=20	=20	=20	=20	=20	=20	=20
!	!LO:DY:a	!	!	!	!	!	!	!
16BB-LL	ff ff	16B-LL	.	16b-LL	ff	16b-LL	ff	@none
!LO:TX:b:i:t=non ligato	!	!LO:TX:b:i:t=non ligato	!	!LO:TX:b:i:t=non ligato	!	!LO:TX:b:i:t=non ligato	!	!
16C-	.	16c-	.	16cc-	.	16cc-	.	.
16D-	.	16d-	.	16dd-	.	16dd-	.	.
16E-JJ	.	16e-JJ	.	16ee-JJ	.	16ee-JJ	.	.
16F-LL	.	16f-LL	.	16ff-LL	.	16ff-LL	.	.
16G-	.	16g-	.	16gg-	.	16gg-	.	.
16F-	.	16f-	.	16ff-	.	16ff-	.	.
16E-JJ	.	16e-JJ	.	16ee-JJ	.	16ee-JJ	.	.
16D-LL	.	16d-LL	.	16dd-LL	.	16dd-LL	.	.
16E-	.	16e-	.	16ee-	.	16ee-	.	.
16D-	.	16d-	.	16dd-	.	16dd-	.	.
16C-JJ	.	16c-JJ	.	16cc-JJ	.	16cc-JJ	.	.
16BB-LL	.	16B-LL	.	16b-LL	.	16b-LL	.	.
16AA-	.	16A-	.	16a-	.	16a-	.	.
16GG-	.	16G-	.	16g-	.	16g-	.	.
16FF-JJ	.	16F-JJ	.	16f-JJ	.	16f-JJ	.	.
=21	=21	=21	=21	=21	=21	=21	=21	=21
4EE-	.	4E-	.	4e-	.	8e-L	.	V
.	.	.	.	.	.	(8cc-J	p	V6/VI
4r	.	4r	.	4r	.	(4ccc-	.	.
!	!	!	!LO:DY:a	!	!	!	!	!
2r	.	(4c-	p p	(4e-	.	4ccc-)	.	VI.V
.	.	8d-L	.	8f-L	.	4bb--X	.	viio
.	.	8e-J)	.	8g-J)	.	.	.	.
=22	=22	=22	=22	=22	=22	=22	=22	=22
(4F-	p	[1f-	.	(4a-	.	4aa-	.	I
8G-L	.	.	.	8b--XL	.	8ff-L	.	ii7
8A-J	.	.	.	8cc-J	.	8ee-J	.	I6
[2B--X)	.	.	.	4dd-	.	[2dd-)	.	ii65
.	.	.	.	[4g-)	.	.	.	.
=23	=23	=23	=23	=23	=23	=23	=23	=23
(4B--]	.	2.f-]	.	2.g-]	.	(4dd-]	.	.
4c-	.	.	.	.	.	4cc-	.	V(4)
4c	.	.	.	.	.	4b-	.	.Fr6
4c-X)	.	4e-	.	4g-	.	4cc-)	.	V
=24	=24	=24	=24	=24	=24	=24	=24	=24
4c-	.	([4F-	.	(4a-	.	1cc-	.	I64
4r	.	12F-L]	.	4c-	.	.	.	.
.	.	12A-	.	.	.	.	.	.
.	.	12B--XJ)	.	.	.	.	.	.
2r	.	([4c-	.	4a-	.	.	.	.
.	.	12c-L]	.	4c-	.	.	.	.
.	.	12e-	.	.	.	.	.	.
.	.	12f-J)	.	.	.	.	.	.
=25	=25	=25	=25	=25	=25	=25	=25	=25
2r	.	([4g-	.	4b--X	.	1ccc-	.	V65
.	.	12g-L]	.	4c-	.	.	.	.
.	.	12f	.	.	.	.	.	.
.	.	12g-J)	.	.	.	.	.	.
4r	.	([4f-X	.	4b--	.	.	.	.
4EE-	.	12f-L]	.	4c-)	.	.	.	.
.	.	12e-	.	.	.	.	.	.
.	.	12d-J)	.	.	.	.	.	.
=26	=26	=26	=26	=26	=26	=26	=26	=26
([4FF-	.	(4c-	.	(4a-	.	(2.ccc-	.	I
12FF-L]	.	4f-	.	4c-	.	.	.	.
12AA-	.	.	.	.	.	.	.	.
12BB--XJ)	.	.	.	.	.	.	.	.
([4C-	.	4a-	.	4f-	.	.	.	.
12C-L]	.	4f-	.	4c-	.	4aaa-)	.	.
12E-	.	.	.	.	.	.	.	.
12F-J)	.	.	.	.	.	.	.	.
=27	=27	=27	=27	=27	=27	=27	=27	=27
([4G-	.	4b--X	.	4e-	.	(4aaa-	.	V43
12G-L]	.	4e-	.	4c-	.	4ggg-	.	.
12A-	.	.	.	.	.	.	.	.
12B--XJ)	.	.	.	.	.	.	.	.
([4c-	.	4g-)	.	4e-	.	4fff-	.	.
12c-L]	.	(8g-L	.	4c-)	.	4eee-)	.	.
12c-	.	.	.	.	.	.	.	.
.	.	8cc-J)	.	.	.	.	.	.
12B--J)	.	.	.	.	.	.	.	.
=28	=28	=28	=28	=28	=28	=28	=28	=28
4A-	.	(4cc-	.	([4f-	.	(4fff-	.	I6
4r	.	4c-	.	12f-L]	.	[2.ccc-)	.	.
.	.	.	.	12a-	.	.	.	.
.	.	.	.	12b--XJ)	.	.	.	.
2r	.	4a-	.	([4cc-	.	.	.	.
.	.	4c-	.	12cc-L]	.	.	.	.
.	.	.	.	12ee-	.	.	.	.
.	.	.	.	12ff-J)	.	.	.	.
=29	=29	=29	=29	=29	=29	=29	=29	=29
2r	.	4b--X	.	([4gg-	.	2.ccc-]	.	V2
.	.	4c-	.	12gg-L]	.	.	.	.
.	.	.	.	12ff	.	.	.	.
.	.	.	.	12gg-J)	.	.	.	.
4r	.	4b--	.	([4ff-X	.	.	.	.
4E-	.	4c-)	.	12ff-L]	.	4ccc-	.	V65
.	.	.	.	12ee-	.	.	.	.
.	.	.	.	12dd-J)	.	.	.	.
=30	=30	=30	=30	=30	=30	=30	=30	=30
!LO:TX:b:i:t=cresc.	!	!LO:TX:b:i:t=cresc.	!	!LO:TX:b:i:t=cresc.	!	!LO:TX:b:i:t=cresc.	!	!
([4F-	.	(4a-	.	(4cc-	.	[2ccc-	.	I
12F-L]	.	4c-)	.	4a-)	.	.	.	.
12A-	.	.	.	.	.	.	.	.
12B--XJ)	.	.	.	.	.	.	.	.
([4A-	.	([4c-	.	(4a-	.	8ccc-L]	.	I6
.	.	.	.	.	.	8fff-'	.	.
12A-L]	.	12c-L]	.	4f-)	.	8aaa-'	.	.
12B--	.	12d-	.	.	.	.	.	.
.	.	.	.	.	.	[8cccc-J	.	.
12c-J)	.	12dJ)	.	.	.	.	.	.
=31	=31	=31	=31	=31	=31	=31	=31	=31
([4B--X	.	4r	.	(4d-	.	4cccc-]	.	IV(9)
12B--L]	.	(12d-L	.	2dd-)	.	(12cccc-L	.	.
12c-	.	12d	.	.	.	12bbb--X	.	IV
12d-J)	.	12f-J)	.	.	.	12aaa-J)	.	.
([4B--	.	4r	.	.	.	(12aaa-L	.	ii6(2)
.	.	.	.	.	.	12ggg-	.	ii6
.	.	.	.	.	.	12fff-J)	.	.
12B--L]	.	(12d-XL	.	4d-	.	(12fff-L	.	IV
12c-	.	12e-	.	.	.	12eee-	.	.
12d-J)	.	12f-J)	.	.	.	12ddd-J)	.	.
=32	=32	=32	=32	=32	=32	=32	=32	=32
[4c-	.	4r	.	(4e-	.	(12ddd-L	.	V
.	.	.	.	.	.	12ccc-	.	.
.	.	.	.	.	.	12bb-J	.	.
(12c-L]	.	(12e-L	.	2ee-)	.	12ddd-L	.	.
12d-	.	12f-	.	.	.	12ccc-	.	.
12e-J)	.	12g-J)	.	.	.	12bb--XJ)	.	V7
[4c	.	4r	.	.	.	(12bb--L	.	viio7/vi
.	.	.	.	.	.	12aa-	.	.
.	.	.	.	.	.	12ggJ	.	.
(12cL]	.	(12e-L	.	4e-	.	12bb--L	.	.
12d-	.	12f-	.	.	.	12aa-	.	.
12e-J)	.	12g-J)	.	.	.	12gg-XJ)	.	.
=33	=33	=33	=33	=33	=33	=33	=33	=33
!LO:TX:a:i:t=dim.	!	!	!	!	!	!LO:TX:b:i:t=dim.	!	!
[4d-	.	4f-	.	4r	.	(12gg-L	.	vi(9)
.	.	.	.	.	.	12ff-	.	vi
.	.	.	.	.	.	12ee-J)	.	.
!	!	!	!	!LO:TX:b:i:t=dim.	!	!	!	!
(12d-L]	.	4r	.	(12f-L	.	(12ff-L	.	.
12e-	.	.	.	12g-	.	12ee-	.	.
12f-J)	.	.	.	12gJ)	.	12dd-J)	.	viio7/iii
[4d-	.	4f-	.	4r	.	(12ee-L	.	iv
.	.	.	.	.	.	12dd-	.	.
.	.	.	.	.	.	12cc-J)	.	.
(12d-L]	.	4r	.	(12f-L	.	(12dd-L	.	.
12e-	.	.	.	12g-X	.	12cc-	.	V6
12f-J)	.	.	.	12gJ)	.	12b-J)	.	viio7/iii
=34	=34	=34	=34	=34	=34	=34	=34	=34
4e-	p	4E-	p	4g-	p	(12dd-L	p	V6(9)
.	.	.	.	.	.	12cc-	.	V6
.	.	.	.	.	.	12b-J)	.	V65
!	!LO:DY:a	!	!LO:DY:a	!	!LO:DY:a	!	!	!
[2.EE- [2.C-	f f	2.E- 2.e-	f	[2g- [2gg-	f	12b--X'L	.	.
.	.	.	.	.	.	(12c-	.	.
.	.	.	.	.	.	12cc-J)	.	.
.	.	.	.	.	.	12b--'L	.	.
.	.	.	.	.	.	(12c-	.	.
.	.	.	.	.	.	12cc-J)	.	.
.	.	.	.	(16g-LL] 16gg-]	.	12b--'L	.	.
.	.	.	.	16aa-	.	.	.	.
.	.	.	.	.	.	(12c-	.	.
.	.	.	.	16bb--X	.	.	.	.
.	.	.	.	.	.	12cc-J)	.	.
.	.	.	.	16aa-JJ)	.	.	.	.
=35	=35	=35	=35	=35	=35	=35	=35	=35
!	!LO:DY:a	!	!	!	!LO:DY:a	!	!	!
1EE-_ 1C-_	sf	(16G-LL	.	1gg-	sf sf	12b--X'L	.	.
.	.	16A-	.	.	.	.	.	.
.	.	.	.	.	.	(12c-	.	.
.	.	16B--X	.	.	.	.	.	.
.	.	.	.	.	.	12cc-J)	.	.
.	.	16A-JJ)	.	.	.	.	.	.
.	.	(16G-LL	.	.	.	12b--'L	.	.
.	.	16A-	.	.	.	.	.	.
.	.	.	.	.	.	(12c-	.	.
.	.	16B--	.	.	.	.	.	.
.	.	.	.	.	.	12cc-J)	.	.
.	.	16A-JJ)	.	.	.	.	.	.
.	.	(16G-LL	.	.	.	12b--'L	.	.
.	.	16A-	.	.	.	.	.	.
.	.	.	.	.	.	(12c-	.	.
.	.	16B--	.	.	.	.	.	.
.	.	.	.	.	.	12cc-J)	.	.
.	.	16A-JJ)	.	.	.	.	.	.
.	.	(16G-LL	.	.	.	12b--'L	.	.
.	.	16A-	.	.	.	.	.	.
.	.	.	.	.	.	(12c-	.	.
.	.	16B--	.	.	.	.	.	.
.	.	.	.	.	.	12cc-J)	.	.
.	.	16A-JJ)	.	.	.	.	.	.
=36	=36	=36	=36	=36	=36	=36	=36	=36
4EE-] 4C-]	.	4G-	.	4g-	.	(16b-LL	.	.
.	.	.	.	.	.	16cc-	.	.
.	.	.	.	.	.	16b--X	.	.
.	.	.	.	.	.	16c-JJ)	.	.
!	!	!	!	!	!LO:DY:a	!	!	!
[2.EE- [2.C-	f	2.E- 2.e-	f	[2g- [2gg-	f f	12b--'L	.	.
.	.	.	.	.	.	(12c-	.	.
.	.	.	.	.	.	12cc-J)	.	.
.	.	.	.	.	.	12b--'L	.	.
.	.	.	.	.	.	(12c-	.	.
.	.	.	.	.	.	12cc-J)	.	.
.	.	.	.	(16g-LL] 16gg-]	.	12b--'L	.	.
.	.	.	.	16aa-	.	.	.	.
.	.	.	.	.	.	(12c-	.	.
.	.	.	.	16bb--X	.	.	.	.
.	.	.	.	.	.	12cc-J)	.	.
.	.	.	.	16aa-JJ)	.	.	.	.
=37	=37	=37	=37	=37	=37	=37	=37	=37
!	!LO:DY:a	!	!	!	!LO:DY:a	!	!	!
2.EE-] 2.C-]	sf	(16G-LL	.	2.gg-	sf sf	12b--X'L	.	.
.	.	16A-	.	.	.	.	.	.
.	.	.	.	.	.	(12c-	.	.
.	.	16B--X	.	.	.	.	.	.
.	.	.	.	.	.	12cc-J)	.	.
.	.	16A-JJ)	.	.	.	.	.	.
.	.	(16G-LL	.	.	.	12b--'L	.	.
.	.	16A-	.	.	.	.	.	.
.	.	.	.	.	.	(12c-	.	.
.	.	16B--	.	.	.	.	.	.
.	.	.	.	.	.	12cc-J)	.	.
.	.	16A-JJ)	.	.	.	.	.	.
.	.	(16G-LL	.	.	.	12b--'L	.	.
.	.	16A-	.	.	.	.	.	.
.	.	.	.	.	.	(12c-	.	.
.	.	16B--	.	.	.	.	.	.
.	.	.	.	.	.	12cc-J)	.	.
.	.	16G-JJ)	.	.	.	.	.	.
8C-'L	.	8c-'L	.	8ccc-'L	.	(16c-LL	.	V
.	.	.	.	.	.	16cc-)	.	.
8C-'J	.	8c-'J	.	8c-'J	.	(16c-	.	.
.	.	.	.	.	.	16cc-JJ)	.	.
=38	=38	=38	=38	=38	=38	=38	=38	=38
!	!	!	!LO:DY:a	!	!LO:DY:a	!	!	!
4C	ff	4c	ff ff	8cL	ff	8cL	.	V/#i
.	.	.	.	16dL	.	16dL	.	.
.	.	.	.	16eXJJ	.	16eXJJ	.	.
4r	.	4r	.	16fLL	.	16fLL	.	.
.	.	.	.	16g	.	16g	.	.
.	.	.	.	16aX	.	16aX	.	.
.	.	.	.	16bXJJ	.	16bXJJ	.	.
8CL	.	8cL	.	8ccL	.	8ccL	.	.
16DL	.	16dL	.	16ddL	.	16ddL	.	.
16EXJJ	.	16eXJJ	.	16eeXJJ	.	16eeXJJ	.	.
16FLL	.	16fLL	.	16ffLL	.	16ffLL	.	.
16G	.	16g	.	16g	.	16gg	.	.
16AX	.	16aX	.	16a	.	16aaX	.	.
16BXJJ	.	16bXJJ	.	16bJJ	.	16bbXJJ	.	.
=39	=39	=39	=39	=39	=39	=39	=39	=39
4C'	.	4c' 4cc	.	4cc'	.	4ccc'	.	.
4F'	.	4f'	.	4ff'	.	4fff'	.	#i
2r	.	2r	.	2r	.	2r	.	.
=40	=40	=40	=40	=40	=40	=40	=40	=40
4r	.	4r	.	(4ff	p	(4fff	p	.
2.B--X	p	(2d-	p	2gg-	.	2ggg-	.	ii6
.	.	4b--X)	.	4dd-)	.	4ddd-)	.	.
=41	=41	=41	=41	=41	=41	=41	=41	=41
2r	.	2r	.	(4dd-	.	(4ddd-	.	.
.	.	.	.	2cc	.	2ccc	.	I+
(4f-	.	(4c- 4a-	.	.	.	.	.	.
4g-)	.	4c-) 4b--X	.	4cc-X)	.	4ccc-X)	.	V7
=42	=42	=42	=42	=42	=42	=42	=42	=42
2r	.	2r	.	(4dd-	.	(4ddd-	.	vi
.	.	.	.	2cc	.	2ccc	.	I+
(4f-	.	(4c- 4a-	.	.	.	.	.	.
8g-L)	.	8c-L) 8b--X	.	8cc-XL	.	4ccc-X)	.	V7
8C-J	.	8G-J	.	8e-J)	.	.	.	.
=43	=43	=43	=43	=43	=43	=43	=43	=43
1FF-	.	(16A-LL	.	(16f-LL	.	1ccc-	.	I[I6
.	.	16B--X	.	16g-	.	.	.	.
.	.	16c-	.	16a-	.	.	.	.
.	.	16B--JJ	.	16g-JJ	.	.	.	.
.	.	16A-LL	.	16f-LL	.	.	.	.
.	.	16B--	.	16g-	.	.	.	.
.	.	16c-	.	16a-	.	.	.	.
.	.	16B--JJ	.	16g-JJ	.	.	.	.
.	.	16A-LL	.	16f-LL	.	.	.	.
.	.	16B--	.	16g-	.	.	.	.
.	.	16c-	.	16a-	.	.	.	.
.	.	16B--JJ	.	16g-JJ	.	.	.	.
.	.	16A-LL	.	16f-LL	.	.	.	.
.	.	16B--	.	16g-	.	.	.	.
.	.	16c-	.	16a-	.	.	.	.
.	.	16A-JJ)	.	16f-JJ)	.	.	.	.
=44	=44	=44	=44	=44	=44	=44	=44	=44
(16FF-LL	.	(2.G-	.	(2.e-	.	(4ccc-	.	V43
16GG-	.	.	.	.	.	.	.	.
16FF-	.	.	.	.	.	.	.	.
16GG-JJ	.	.	.	.	.	.	.	.
16FF-LL	.	.	.	.	.	4bb--X	.	.
16GG-	.	.	.	.	.	.	.	.
16FF-	.	.	.	.	.	.	.	.
16GG-JJ	.	.	.	.	.	.	.	.
16FF-LL	.	.	.	.	.	4gg-	.	.
16GG-	.	.	.	.	.	.	.	.
16FF-	.	.	.	.	.	.	.	.
16GG-JJ	.	.	.	.	.	.	.	.
16FF-LL	.	8B--XL	.	8g-L	.	8ee-L	.	.
16GG-	.	.	.	.	.	.	.	.
16FF-	.	8G-J)	.	8e-J)	.	8ccc-J)	.	.
16GG-JJ)	.	.	.	.	.	.	.	.
=45	=45	=45	=45	=45	=45	=45	=45	=45
1FF-	.	(16A-LL	.	(16f-LL	.	[2ccc-	.	I6
.	.	16B--X	.	16g-	.	.	.	.
.	.	16c-	.	16a-	.	.	.	.
.	.	16B--JJ	.	16g-JJ	.	.	.	.
.	.	16A-LL	.	16f-LL	.	.	.	.
.	.	16B--	.	16g-	.	.	.	.
.	.	16c-	.	16a-	.	.	.	.
.	.	16B--JJ	.	16g-JJ	.	.	.	.
.	.	16A-LL	.	16f-LL	.	8ccc-L]	.	.
.	.	16B--	.	16g-	.	.	.	.
.	.	16c-	.	16a-	.	(8ccc-	.	.
.	.	16B--JJ	.	16g-JJ	.	.	.	.
.	.	16A-LL	.	16f-LL	.	8ddd-	.	.
.	.	16B--	.	16g-	.	.	.	.
.	.	16c-	.	16a-	.	8ccc-J)	.	.
.	.	16A-JJ)	.	16f-JJ)	.	.	.	.
=46	=46	=46	=46	=46	=46	=46	=46	=46
(16FF-LL	.	(2.G-	.	(2.e-	.	(4ccc-	.	V43
16GG-	.	.	.	.	.	.	.	.
16FF-	.	.	.	.	.	.	.	.
16GG-JJ	.	.	.	.	.	.	.	.
16FF-LL	.	.	.	.	.	4bb--X	.	.
16GG-	.	.	.	.	.	.	.	.
16FF-	.	.	.	.	.	.	.	.
16GG-JJ	.	.	.	.	.	.	.	.
16FF-LL	.	.	.	.	.	4gg-	.	.
16GG-	.	.	.	.	.	.	.	.
16FF-	.	.	.	.	.	.	.	.
16GG-JJ	.	.	.	.	.	.	.	.
16FF-LL	.	8B--XL	.	8g-L	.	8ee-L	.	.
16GG-	.	.	.	.	.	.	.	.
16FF-	.	8G-J)	.	8e-J)	.	8ccc-J)	.	.
16GG-JJ)	.	.	.	.	.	.	.	.
=47	=47	=47	=47	=47	=47	=47	=47	=47
!	!LO:DY:a	!	!LO:DY:a	!	!	!	!	!
(16FF-LL	pp	2A-'	pp	2f-'	.	2ccc-'	pp	I6
16GG-	pp	.	.	.	.	.	.	.
16FF-	.	.	.	.	.	.	.	.
16GG-JJ	.	.	.	.	.	.	.	.
16FF-LL	.	.	.	.	.	.	.	.
16GG-	.	.	.	.	.	.	.	.
16FF-	.	.	.	.	.	.	.	.
16GG-JJ)	.	.	.	.	.	.	.	.
(16FF-LL	.	2A-'	.	2c-'	.	2cc-'	.	.
16GG-	.	.	.	.	.	.	.	.
16FF-	.	.	.	.	.	.	.	.
16GG-JJ	.	.	.	.	.	.	.	.
16FF-LL	.	.	.	.	.	.	.	.
16GG-	.	.	.	.	.	.	.	.
16FF-	.	.	.	.	.	.	.	.
16GG-JJ)	.	.	.	.	.	.	.	.
=48	=48	=48	=48	=48	=48	=48	=48	=48
(16FF-LL	.	2A-'	.	2f-'	.	2cc-'	.	.
16GG-	.	.	.	.	.	.	.	.
16FF-	.	.	.	.	.	.	.	.
16GG-JJ	.	.	.	.	.	.	.	.
16FF-LL	.	.	.	.	.	.	.	.
16GG-	.	.	.	.	.	.	.	.
16FF-	.	.	.	.	.	.	.	.
16GG-JJ)	.	.	.	.	.	.	.	.
!LO:TX:b:i:t=cresc.	!	!LO:TX:b:i:t=cresc.	!	!LO:TX:b:i:t=cresc.	!	!LO:TX:b:i:t=cresc.	!	!
12FF-L	.	12F-L	.	12f-L	.	12ff-L	.	.
12FF-	.	12F-	.	12f-	.	12ff-	.	.
12FF-J	.	12F-J	.	12f-J	.	12ff-J	.	.
12FF-L	.	12F-L	.	12f-L	.	12ff-L	.	.
12FF-	.	12F-	.	12f-	.	12ff-	.	.
12FF-J	.	12F-J	.	12f-J	.	12ff-J	.	I]
=49	=49	=49	=49	=49	=49	=49	=49	=49
!	!LO:DY:a	!	!LO:DY:a	!	!	!	!	!
[2FF	ff ff	[2F	ff	[2f	.	[2ff	ff	#viio/ii
8FFL]	.	8FL]	.	8fL]	.	8ffL]	.	.
16GGL	.	16GL	.	16gL	.	16ggL	.	.
16AAXJJ	.	16AXJJ	.	16aXJJ	.	16aaXJJ	.	.
16BB-LL	.	16B-LL	.	16b-LL	.	16bb-LL	.	.
16C	.	16c	.	16cc	.	16ccc	.	.
16D	.	16d	.	16dd	.	16ddd	.	.
16EXJJ	.	16eXJJ	.	16eeXJJ	.	16eeeXJJ	.	.
=50	=50	=50	=50	=50	=50	=50	=50	=50
4F'	.	4f'	.	4ff'	.	4fff'	.	#viio/ii\\
4r	.	4r	.	4r	.	4r	.	.
2r	.	2r	.	2r	.	2r	.	.
=51	=51	=51	=51	=51	=51	=51	=51	=51
!	!	!	!	!	!LO:DY:a	!	!LO:DY:a	!
4r	.	4r	.	(4ff	p	(4fff	p	.
!	!LO:DY:a	!	!	!	!	!	!	!
2.B--X	p	(2d-	p	2gg-	.	2ggg-	.	ii6
.	.	4b--X)	.	4dd-)	.	4ddd-)	.	.
=52	=52	=52	=52	=52	=52	=52	=52	=52
2r	.	2r	.	(4dd-	.	(4ddd-	.	.
.	.	.	.	2cc	.	2ccc	.	I+
(4f-	.	(4c- 4a-	.	.	.	.	.	.
4g-)	.	4c-) 4b--X	.	4cc-X)	.	4ccc-X)	.	V7
=53	=53	=53	=53	=53	=53	=53	=53	=53
2r	.	2r	.	(4dd-	.	(4ddd-	.	vi
.	.	.	.	2cc	.	2ccc	.	I+
(4f-	.	(4c- 4a-	.	.	.	.	.	.
8g-L)	.	8c-L) 8b--X	.	8cc-XL	.	4ccc-X)	.	V7
8C-J	.	8G-J	.	8e-J)	.	.	.	.
=54	=54	=54	=54	=54	=54	=54	=54	=54
1FF-	.	(16A-LL	.	(16f-LL	.	1ccc-	.	I[I6
.	.	16B--X	.	16g-	.	.	.	.
.	.	16c-	.	16a-	.	.	.	.
.	.	16B--JJ	.	16g-JJ	.	.	.	.
.	.	16A-LL	.	16f-LL	.	.	.	.
.	.	16B--	.	16g-	.	.	.	.
.	.	16c-	.	16a-	.	.	.	.
.	.	16B--JJ	.	16g-JJ	.	.	.	.
.	.	16A-LL	.	16f-LL	.	.	.	.
.	.	16B--	.	16g-	.	.	.	.
.	.	16c-	.	16a-	.	.	.	.
.	.	16B--JJ	.	16g-JJ	.	.	.	.
.	.	16A-LL	.	16f-LL	.	.	.	.
.	.	16B--	.	16g-	.	.	.	.
.	.	16c-	.	16a-	.	.	.	.
.	.	16A-JJ)	.	16f-JJ)	.	.	.	.
=55	=55	=55	=55	=55	=55	=55	=55	=55
(16FF-LL	.	(2.G-	.	(2.e-	.	(4ccc-	.	V43
16GG-	.	.	.	.	.	.	.	.
16FF-	.	.	.	.	.	.	.	.
16GG-JJ	.	.	.	.	.	.	.	.
16FF-LL	.	.	.	.	.	4bb--X	.	.
16GG-	.	.	.	.	.	.	.	.
16FF-	.	.	.	.	.	.	.	.
16GG-JJ	.	.	.	.	.	.	.	.
16FF-LL	.	.	.	.	.	4gg-	.	.
16GG-	.	.	.	.	.	.	.	.
16FF-	.	.	.	.	.	.	.	.
16GG-JJ	.	.	.	.	.	.	.	.
16FF-LL	.	8B--XL	.	8g-L	.	8ee-L	.	.
16GG-	.	.	.	.	.	.	.	.
16FF-	.	8G-J)	.	8e-J)	.	8ccc-J)	.	.
16GG-JJ)	.	.	.	.	.	.	.	.
=56	=56	=56	=56	=56	=56	=56	=56	=56
1FF-	.	(16A-LL	.	(16f-LL	.	4.ccc-	.	I6
.	.	16B--X	.	16g-	.	.	.	.
.	.	16c-	.	16a-	.	.	.	.
.	.	16B--JJ	.	16g-JJ	.	.	.	.
.	.	16A-LL	.	16f-LL	.	.	.	.
.	.	16B--	.	16g-	.	.	.	.
.	.	16c-	.	16a-	.	[8cc-	.	.
.	.	16B--JJ	.	16g-JJ	.	.	.	.
.	.	16A-LL	.	16f-LL	.	8cc-L]	.	.
.	.	16B--	.	16g-	.	.	.	.
.	.	16c-	.	16a-	.	(8cc-	.	.
.	.	16B--JJ	.	16g-JJ	.	.	.	.
.	.	16A-LL	.	16f-LL	.	8dd-	.	.
.	.	16B--	.	16g-	.	.	.	.
.	.	16c-	.	16a-	.	8cc-J)	.	.
.	.	16A-JJ)	.	16f-JJ)	.	.	.	.
=57	=57	=57	=57	=57	=57	=57	=57	=57
(16FF-LL	.	(2.G-	.	(2.e-	.	(4cc-	.	V43
16GG-	.	.	.	.	.	.	.	.
16FF-	.	.	.	.	.	.	.	.
16GG-JJ	.	.	.	.	.	.	.	.
16FF-LL	.	.	.	.	.	4b--X	.	.
16GG-	.	.	.	.	.	.	.	.
16FF-	.	.	.	.	.	.	.	.
16GG-JJ	.	.	.	.	.	.	.	.
16FF-LL	.	.	.	.	.	4g-	.	.
16GG-	.	.	.	.	.	.	.	.
16FF-	.	.	.	.	.	.	.	.
16GG-JJ	.	.	.	.	.	.	.	.
16FF-LL	.	8B--XL	.	8g-L	.	8e-L	.	.
16GG-	.	.	.	.	.	.	.	.
16FF-	.	8G-J)	.	8e-J)	.	8c-J)	.	.
16GG-JJ)	.	.	.	.	.	.	.	.
=58	=58	=58	=58	=58	=58	=58	=58	=58
!	!	!	!LO:DY:a	!	!LO:DY:a	!	!	!
8FF-L	pp	4A-	pp pp	4c-	pp	4f-	.	I6]
(16c-L	.	.	.	.	.	.	.	.
16d-JJ	.	.	.	.	.	.	.	.
16c-LL	.	4r	.	4r	.	4r	.	.
16d-	.	.	.	.	.	.	.	.
16c-	.	.	.	.	.	.	.	.
16d-JJ)	.	.	.	.	.	.	.	.
4c-	.	2r	.	4e-	.	4g-	.	V
4r	.	.	.	4r	.	4r	.	.
=59	=59	=59	=59	=59	=59	=59	=59	=59
4F-	.	8r	.	4f-	.	4a-	.	I
.	.	(16c-LL	.	.	.	.	.	.
.	.	16d-JJ	.	.	.	.	.	.
4r	.	16c-LL	.	4r	.	4r	.	.
.	.	16d-	.	.	.	.	.	.
.	.	16c-	.	.	.	.	.	.
.	.	16d-JJ)	.	.	.	.	.	.
4C-	.	4c-	.	4g-	.	4ee-	.	V
4r	.	4r	.	4r	.	4r	.	.
=60	=60	=60	=60	=60	=60	=60	=60	=60
!	!	!	!	!	!LO:DY:a	!	!	!
(16AA-LL	ff	2.ee-	ff	1a- 1cc	ff ff	1a- 1ee- 1aa-	.	i.V/iv
16BB-	.	.	.	.	.	.	.	.
16C	.	.	.	.	.	.	.	.
16BB-JJ)	.	.	.	.	.	.	.	.
8AA-'L	.	.	.	.	.	.	.	.
8GG'J	.	.	.	.	.	.	.	.
8FF'L	.	.	.	.	.	.	.	.
8EE-'	.	.	.	.	.	.	.	.
8FF'	.	(16ee-LL	.	.	.	.	.	.
.	.	16ff-	.	.	.	.	.	.
8GG'J	.	16ee-	.	.	.	.	.	.
.	.	16dd-JJ)	.	.	.	.	.	.
=61	=61	=61	=61	=61	=61	=61	=61	=61
4AA-	sf	(16ccLL	sf	(16a-LL	sf	(4aa-	sf	.
.	.	16dd-	.	16b-	.	.	.	.
.	.	16ee-	.	16cc	.	.	.	.
.	.	16dd-JJ)	.	16b-JJ)	.	.	.	.
4r	.	8cc'	.	8a-'	.	4ccc	.	.
.	.	8r	.	8r	.	.	.	.
2r	.	(16ccLL	.	(16a-LL	.	4eee-	.	.
.	.	16dd-	.	16b-	.	.	.	.
.	.	16ee-	.	16cc	.	.	.	.
.	.	16dd-JJ)	.	16b-JJ)	.	.	.	.
.	.	8cc'	.	8a-'	.	4aaa-)	.	.
.	.	8r	.	8r	.	.	.	.
=62	=62	=62	=62	=62	=62	=62	=62	=62
(16G-LL	ff	1e- 1g-	ff	2.c 2.b--X 2.gg-	ff	1bbb--X	ff	#viio43/vi
16A-	.	.	.	.	.	.	.	.
16B--X	.	.	.	.	.	.	.	.
16A-JJ)	.	.	.	.	.	.	.	.
8G-'L	.	.	.	.	.	.	.	.
8F-'J	.	.	.	.	.	.	.	.
8E-'L	.	.	.	.	.	.	.	.
8D-'	.	.	.	.	.	.	.	.
8E-'	.	.	.	(16gg-LL	.	.	.	.
.	.	.	.	16aa-	.	.	.	.
8F-'J	.	.	.	16gg-	.	.	.	.
.	.	.	.	16ff-JJ)	.	.	.	.
=63	=63	=63	=63	=63	=63	=63	=63	=63
4G-	.	(16ccLL	.	(16ee-LL	.	(4bb--X	.	.
.	.	16dd-	.	16ff-	.	.	.	.
.	.	16ee-	.	16gg-	.	.	.	.
.	.	16dd-JJ)	.	16ff-JJ)	.	.	.	.
4r	.	8cc'	.	8ee-'	.	4eee-	.	.
.	.	8r	.	8r	.	.	.	.
2r	.	(16ccLL	.	(16ee-LL	.	4ggg-	.	.
.	.	16dd-	.	16ff-	.	.	.	.
.	.	16ee-	.	16gg-	.	.	.	.
.	.	16dd-JJ)	.	16ff-JJ)	.	.	.	.
.	.	8cc'	.	8ee-'	.	4bbb--X)	.	.
.	.	8r	.	8r	.	.	.	.
=64	=64	=64	=64	=64	=64	=64	=64	=64
(16d-LL	ff	2.ff-	ff	1g 1dd-	ff	1bb- 1bbb-	ff	#viio43
16e-	.	.	.	.	.	.	.	.
16f-	.	.	.	.	.	.	.	.
16e-JJ)	.	.	.	.	.	.	.	.
8d-'L	.	.	.	.	.	.	.	.
8c-'J	.	.	.	.	.	.	.	.
8B-'L	.	.	.	.	.	.	.	.
8A-'	.	.	.	.	.	.	.	.
8B-'	.	(16ff-LL	.	.	.	.	.	.
.	.	16gg-	.	.	.	.	.	.
8c-'J	.	16ff-	.	.	.	.	.	.
.	.	16ee-JJ)	.	.	.	.	.	.
=65	=65	=65	=65	=65	=65	=65	=65	=65
4d-	.	(16dd-LL	.	(16b-LL	.	(4bb-	.	.
.	.	16ee-	.	16cc-	.	.	.	.
.	.	16ff-	.	16dd-	.	.	.	.
.	.	16ee-JJ)	.	16cc-JJ)	.	.	.	.
(16D-LL	.	8dd-'	.	8b-'	.	4ddd-	.	.
16E-	.	.	.	.	.	.	.	.
16D-	.	8r	.	8r	.	.	.	.
16C-JJ	.	.	.	.	.	.	.	.
16BB-LL	.	(16B-LL	.	(16d-LL	.	4ggg	.	.
16C-	.	16c-	.	16e-	.	.	.	.
16D-	.	16d-	.	16f-	.	.	.	.
16C-JJ	.	16c-JJ	.	16e-JJ	.	.	.	.
16BB-LL	.	16B-LL	.	16d-LL	.	[4bbb-)	.	.
16C-	.	16c-	.	16e-	.	.	.	.
16BB-	.	16B-	.	16d-	.	.	.	.
16AA-JJ)	.	16A-JJ)	.	16c-JJ)	.	.	.	.
=66	=66	=66	=66	=66	=66	=66	=66	=66
4..GG	.	4..G	.	4..B-	.	8bbb-L]	.	#viio
.	.	.	.	.	.	16r	.	.
.	.	.	.	.	.	(16bbb-Jk	.	.
.	.	.	.	.	.	[4bb-)	.	.
16GG	.	16B-	.	16b-	.	.	.	.
4..GG	.	4..B-	.	4..b-	.	8bb-L]	.	.
.	.	.	.	.	.	16r	.	.
.	.	.	.	.	.	(16bb-Jk	.	.
.	.	.	.	.	.	4b-)	.	.
16GG	.	16B-	.	16b-	.	.	.	.
=67	=67	=67	=67	=67	=67	=67	=67	=67
4..AA-	.	4..c-	.	4..cc-	.	8r	.	i
.	.	.	.	.	.	16r	.	.
.	.	.	.	.	.	(16aa-	.	.
.	.	.	.	.	.	4a-)	.	.
16AA-	.	16c-	.	16cc-	.	.	.	.
4..BB--X	.	4..d-	.	4..dd-	.	8r	.	.Ger6/iv
.	.	.	.	.	.	16r	.	.
.	.	.	.	.	.	(16gg	.	.
.	.	.	.	.	.	4g)	.	.
16BB--	.	16d-	.	16dd-	.	.	.	.
=68	=68	=68	=68	=68	=68	=68	=68	=68
4..BB-	.	4..d-	.	4..dd-	.	8r	.	iio
.	.	.	.	.	.	16r	.	.
.	.	.	.	.	.	(16fff-	.	.
.	.	.	.	.	.	4ff-)	.	.
16BB-	.	16d-	.	16dd-	.	.	.	.
4..BB-	.	4..d-	.	4..dd-	.	8r	.	.
.	.	.	.	.	.	16r	.	.
.	.	.	.	.	.	(16ff-	.	.
.	.	.	.	.	.	4f-)	.	.
16BB-	.	16d-	.	16dd-	.	.	.	.
=69	=69	=69	=69	=69	=69	=69	=69	=69
4..C-	.	4..e-	.	4..ee-	.	8r	.	III
.	.	.	.	.	.	16r	.	.
.	.	.	.	.	.	(16ee-	.	.
.	.	.	.	.	.	4e-)	.	.
16C-	.	16e-	.	16ee-	.	.	.	.
4..D-	.	4..f-	.	4..ff-	.	8r	.	iv
.	.	.	.	.	.	16r	.	.
.	.	.	.	.	.	(16dd-	.	.
.	.	.	.	.	.	4d-)	.	.
16D-	.	16f-	.	16ff-	.	.	.	.
=70	=70	=70	=70	=70	=70	=70	=70	=70
(16DLL	sf	2d 2f	sf	2ff	sf	8r	.	#viio7/V
16E-	.	.	.	.	.	.	.	.
16F	.	.	.	.	.	16r	.	.
16E-JJ)	.	.	.	.	.	(16cc-	.	.
4D	.	.	.	.	.	4c-)	.	.
2r	.	(16dLL	sf	(16ffLL	sf	8r	.	.
.	.	16e-	.	16gg-	.	.	.	.
.	.	16f	.	16aa-	.	16r	.	.
.	.	16e-JJ)	.	16gg-JJ)	.	(16cc-	.	.
.	.	4d	.	4ff	.	4c-)	.	.
=71	=71	=71	=71	=71	=71	=71	=71	=71
!	!LO:DY:a	!	!	!	!	!	!	!
(16DLL	sf sf	2d 2f	.	2f 2ff	sf	8r	.	.
16E-	.	.	.	.	.	.	.	.
16F	.	.	.	.	.	16r	.	.
16E-JJ)	.	.	.	.	.	(16cc-	.	.
4D	.	.	.	.	.	4c-)	.	.
2r	.	(16dLL	.	(16ffLL	.	8r	.	.
.	.	16e-	.	16gg-	.	.	.	.
.	.	16f	.	16aa-	.	16r	.	.
.	.	16e-JJ)	.	16gg-JJ)	.	(16cc-	.	.
.	.	4d	.	4ff	.	4c-)	.	.
=72	=72	=72	=72	=72	=72	=72	=72	=72
!	!	!	!	!	!LO:DY:a	!	!	!
1r	.	1r	.	1r	pp	(16cc-LL	.	.
.	.	.	.	.	.	16c-)	.	.
.	.	.	.	.	.	(16cc-	.	.
.	.	.	.	.	.	16c-JJ)	.	.
.	.	.	.	.	.	(16cc-LL	.	.
.	.	.	.	.	.	16c-)	.	.
.	.	.	.	.	.	(16cc-	.	.
.	.	.	.	.	.	16c-JJ)	.	.
.	.	.	.	.	.	(16cc-LL	.	.
.	.	.	.	.	.	16c-)	.	.
.	.	.	.	.	.	(16cc-	.	.
.	.	.	.	.	.	16c-JJ)	.	.
.	.	.	.	.	.	(16cc-LL	.	.
.	.	.	.	.	.	16c-)	.	.
.	.	.	.	.	.	(16cc-	.	.
.	.	.	.	.	.	16c-JJ)	.	.
=73	=73	=73	=73	=73	=73	=73	=73	=73
1BB- 1F	pp	1a-	pp	1dd 1bb-	pp	(16ddLL	.	V43/V
.	.	.	.	.	.	16d)	.	.
.	.	.	.	.	.	(16dd	.	.
.	.	.	.	.	.	16dJJ)	.	.
.	.	.	.	.	.	(16ddLL	.	.
.	.	.	.	.	.	16d)	.	.
.	.	.	.	.	.	(16dd	.	.
.	.	.	.	.	.	16dJJ)	.	.
.	.	.	.	.	.	(16ddLL	.	.
.	.	.	.	.	.	16d)	.	.
.	.	.	.	.	.	(16dd	.	.
.	.	.	.	.	.	16dJJ)	.	.
.	.	.	.	.	.	(16ddLL	.	.
.	.	.	.	.	.	16d)	.	.
.	.	.	.	.	.	(16dd	.	.
.	.	.	.	.	.	16dJJ)	.	.
=74	=74	=74	=74	=74	=74	=74	=74	=74
1EE- 1E-	> < [[	1g 1ff-	> < [[	1dd- 1bb-	> < [[	(16ddd-LL	<	V7(+9)
.	.	.	.	.	.	16dd-)	.	.
.	.	.	.	.	.	(16ddd-	.	.
.	.	.	.	.	.	16dd-JJ)	.	.
.	.	.	.	.	.	(16ddd-LL	.	.
.	.	.	.	.	.	16dd-)	.	.
.	.	.	.	.	.	(16ddd-	.	.
.	.	.	.	.	.	16dd-JJ)	.	.
.	.	.	.	.	.	(16ddd-LL	[ >	.
.	.	.	.	.	.	16dd-)	.	.
.	.	.	.	.	.	(16ddd-	.	.
.	.	.	.	.	.	16dd-JJ)	.	.
.	.	.	.	.	.	(16ddd-LL	.	.
.	.	.	.	.	.	16dd-)	.	.
.	.	.	.	.	.	(16ddd-	.	.
.	.	.	.	.	.	16dd-JJ)	]]	.
=75	=75	=75	=75	=75	=75	=75	=75	=75
(16D-LL	[ sf	2r	[	2r	[	8r	.	iv
16E-	.	.	.	.	.	.	.	.
16F-	.	.	.	.	.	16r	.	.
16E-JJ)	.	.	.	.	.	(16fff-	sf	.
4D-	.	.	.	.	.	4ff-)	.	.
2g	sf	(16d-LL	sf	(16bb-LL	sf	8r	.	#viio43
.	.	16e-	.	16ccc-	.	.	.	.
.	.	16f-	.	16ddd-	.	16r	.	.
.	.	16e-JJ)	.	16ccc-JJ)	.	16ff-	.	.
.	.	4d-	.	4bb-	.	4f-	.	.
=76	=76	=76	=76	=76	=76	=76	=76	=76
(16C-LL	sf	2r	.	2r	.	8r	.	i6
16D-	.	.	.	.	.	.	.	.
16E-	.	.	.	.	.	16r	.	.
16D-JJ)	.	.	.	.	.	(16eee-	.	.
4C-	.	.	.	.	.	4ee-)	.	.
2a-	sf	(16c-LL	sf	(16aa-LL	sf	8r	.	i
.	.	16d-	.	16bb-	.	.	.	.
.	.	16e-	.	16ccc-	.	16r	.	.
.	.	16d-JJ)	.	16bb-JJ)	.	(16ee-	.	.
.	.	4c-	.	4aa-	.	4e-)	.	.
=77	=77	=77	=77	=77	=77	=77	=77	=77
(16E-LL	p	4r	p	2r	p	(16ee-LL	p	V
16F	.	.	.	.	.	16e-)	.	.
16G	.	.	.	.	.	(16ee-	.	.
16FJJ)	.	.	.	.	.	16e-JJ)	.	.
2.E-	.	(16GLL	.	.	.	(16ee-LL	.	.
.	.	16A-	.	.	.	16e-)	.	.
.	.	16B-	.	.	.	(16ee-	.	.
.	.	16A-JJ)	.	.	.	16e-JJ)	.	.
.	.	2G	.	(4eee-	.	(16ee-LL	.	.
.	.	.	.	.	.	16e-)	.	.
.	.	.	.	.	.	(16ee-	.	.
.	.	.	.	.	.	16e-JJ)	.	.
.	.	.	.	4ee-	.	(16ee-LL	.	.
.	.	.	.	.	.	16e-)	.	.
.	.	.	.	.	.	(16ee-	.	.
.	.	.	.	.	.	16e-JJ)	.	.
=78	=78	=78	=78	=78	=78	=78	=78	=78
[2AA-	<	(16A-LL	<	2ff-	<	(16ee-LL	<	i(6)
.	.	16B-	.	.	.	16e-)	.	.
.	.	16c-	.	.	.	(16ee-	.	.
.	.	16B-JJ)	.	.	.	16e-JJ)	.	.
.	.	4A-	.	.	.	(16ee-LL	.	.
.	.	.	.	.	.	16e-)	.	.
.	.	.	.	.	.	(16ee-	.	.
.	.	.	.	.	.	16e-JJ)	.	.
(16AA-LL]	[ >	(4dd	[ >	4ff	[ >	(16ee-LL	[ >	i(#6#4)
16BB-	.	.	.	.	.	16e-)	.	.
16C-	.	.	.	.	.	(16ee-	.	.
16AA-JJ)	.	.	.	.	.	16e-JJ)	.	.
4EE-	]]	4ee-)	]]	4gg)	]]	(16ee-LL	.	V
.	.	.	.	.	.	16e-)	.	.
.	.	.	.	.	.	(16ee-	.	.
.	.	.	.	.	.	16e-JJ)	]]	.
=79	=79	=79	=79	=79	=79	=79	=79	=79
(16E-LL	.	4r	.	2r	.	(16ee-LL	.	.
16F	.	.	.	.	.	16e-)	.	.
16G	.	.	.	.	.	(16ee-	.	.
16FJJ)	.	.	.	.	.	16e-JJ)	.	.
2.E-	.	(16GLL	.	.	.	(16ee-LL	.	.
.	.	16A-	.	.	.	16e-)	.	.
.	.	16B-	.	.	.	(16ee-	.	.
.	.	16A-JJ)	.	.	.	16e-JJ)	.	.
.	.	2G	.	(4eee-	.	(16ee-LL	.	.
.	.	.	.	.	.	16e-)	.	.
.	.	.	.	.	.	(16ee-	.	.
.	.	.	.	.	.	16e-JJ)	.	.
.	.	.	.	4ee-	.	(16ee-LL	.	.
.	.	.	.	.	.	16e-)	.	.
.	.	.	.	.	.	(16ee-	.	.
.	.	.	.	.	.	16e-JJ)	.	.
=80	=80	=80	=80	=80	=80	=80	=80	=80
[2AA-	<	(16A-LL	<	2ff-	<	(16ee-LL	<	i(6)
.	.	16B-	.	.	.	16e-)	.	.
.	.	16c-	.	.	.	(16ee-	.	.
.	.	16B-JJ)	.	.	.	16e-JJ)	.	.
.	.	4A-	.	.	.	(16ee-LL	.	.
.	.	.	.	.	.	16e-)	.	.
.	.	.	.	.	.	(16ee-	.	.
.	.	.	.	.	.	16e-JJ)	.	.
(16AA-LL]	[ >	(4dd	[ >	4ff	[ >	(16ee-LL	[ >	i(#6#4)
16BB-	.	.	.	.	.	16e-)	.	.
16C-	.	.	.	.	.	(16ee-	.	.
16AA-JJ)	.	.	.	.	.	16e-JJ)	.	.
4EE-	]]	4ee-)	]]	4gg) 4eee-	]]	(16ee-LL	.	V
.	.	.	.	.	.	16e-)	.	.
.	.	.	.	.	.	(16ee-	.	.
.	.	.	.	.	.	16e-JJ)	]]	.
=81	=81	=81	=81	=81	=81	=81	=81	=81
2FF-	sf	8r	.	2eee-	sf	(16ee-LL	sf	VI7
.	.	.	.	.	.	16e-)	.	.
.	.	8a-'	sf	.	.	(16ee-	.	.
.	.	.	.	.	.	16e-JJ)	.	.
.	.	(16A-LL	.	.	.	(16ee-LL	.	.
.	.	16B-	.	.	.	16e-)	.	.
.	.	16c-	.	.	.	(16ee-	.	.
.	.	16A-JJ)	.	.	.	16e-JJ)	.	.
2GG	sf	8r	.	2ddd-	sf	(16ee-LL	.	V65
.	.	.	.	.	.	16e-)	.	.
.	.	8b-'	sf	.	.	(16ee-	.	.
.	.	.	.	.	.	16e-JJ)	.	.
.	.	(16B-LL	.	.	.	(16ee-LL	.	.
.	.	16c-	.	.	.	16e-)	.	.
.	.	16d-	.	.	.	(16ee-	.	.
.	.	16B-JJ)	.	.	.	16e-JJ)	.	.
=82	=82	=82	=82	=82	=82	=82	=82	=82
(16AA-LL	f	(16A-LL	f	(16a-LL	f	(16a-LL	f	i
16BB-	.	16B-	.	16b-	.	16b-	.	.
16C-	.	16c-	.	16cc-	.	16cc-	.	.
16BB-JJ)	.	16B-JJ)	.	16b-JJ)	.	16b-JJ)	.	.
8AA-'L	.	8A-'L	.	8a-'L	.	8a-'L	.	.
8GG-'J	.	8G-'J	.	8g-'J	.	8g-'J	.	.
8FF-'L	.	8F-'L	.	8f-'L	.	8f-'L	.	.
8EE-'	.	8E-'	.	8e-'	.	8e-'	.	V
8FF'	.	8F'	.	8f'	.	8f'	.	.
8GG'J	.	8G'J	.	8g'J	.	8g'J	.	.
=83	=83	=83	=83	=83	=83	=83	=83	=83
4AA-	.	4A-	.	4a-	.	4a-	.	i
4r	.	4r	.	4r	.	4r	.	.
2r	.	2r	.	2r	.	2r	.	.
=84	=84	=84	=84	=84	=84	=84	=84	=84
(16AA-LL	sf	(16A-LL	sf	(16a-LL	sf	(16a-LL	sf	.
16BB-	.	16B-	.	16b-	.	16b-	.	.
16C-	.	16c-	.	16cc-	.	16cc-	.	.
16BB-JJ)	.	16B-JJ)	.	16b-JJ)	.	16b-JJ)	.	.
4AA-'	.	4A-'	.	4a-'	.	4a-'	.	.
(16BB--XLL	sf	(16B--XLL	sf	(16b--XLL	sf	(16b--XLL	sf	.bII
16C-	.	16c-	.	16cc-	.	16cc-	.	.
16D-	.	16d-	.	16dd-	.	16dd-	.	.
16C-JJ)	.	16c-JJ)	.	16cc-JJ)	.	16cc-JJ)	.	.
4BB--'	.	4B--'	.	4b--'	.	4b--'	.	.
=85	=85	=85	=85	=85	=85	=85	=85	=85
!	!LO:DY:a	!	!	!	!LO:DY:a	!	!	!
16BB-LL	ff ff	16B-LL	.	16b-LL	ff ff	16b-LL	.	@none
!LO:TX:b:i:t=non ligato	!	!LO:TX:b:i:t=non ligato	!	!LO:TX:b:i:t=non ligato	!	!LO:TX:b:i:t=non ligato	!	!
16C-	.	16c-	.	16cc-	.	16cc-	.	.
16D-	.	16d-	.	16dd-	.	16dd-	.	.
16E-JJ	.	16e-JJ	.	16ee-JJ	.	16ee-JJ	.	.
16F-LL	.	16f-LL	.	16ff-LL	.	16ff-LL	.	.
16G-	.	16g-	.	16gg-	.	16gg-	.	.
16F-	.	16f-	.	16ff-	.	16ff-	.	.
16E-JJ	.	16e-JJ	.	16ee-JJ	.	16ee-JJ	.	.
16D-LL	.	16d-LL	.	16dd-LL	.	16dd-LL	.	.
16E-	.	16e-	.	16ee-	.	16ee-	.	.
16D-	.	16d-	.	16dd-	.	16dd-	.	.
16C-JJ	.	16c-JJ	.	16cc-JJ	.	16cc-JJ	.	.
16BB-LL	.	16B-LL	.	16b-LL	.	16b-LL	.	.
16AA-	.	16A-	.	16a-	.	16a-	.	.
16GG-	.	16G-	.	16g-	.	16g-	.	.
16FF-JJ	.	16F-JJ	.	16f-JJ	.	16f-JJ	.	.
=86	=86	=86	=86	=86	=86	=86	=86	=86
!	!	!	!	!	!LO:DY:a	!	!	!
4EE-	.	4E-	p	4e-	p p	8e-L	.	V
.	.	.	.	.	.	(8cc-J	.	V6/VI
4r	.	4r	.	4r	.	2ccc-	.	VI.V
2r	.	(4c-	.	(4e-	.	.	.	.
.	.	8d-L	.	8f-L	.	4bb--X	.	viio
.	.	8e-J)	.	8g-J)	.	.	.	.
=87	=87	=87	=87	=87	=87	=87	=87	=87
(4F-	p	[1f-	.	(4a-	.	4aa-	.	I
8G-L	.	.	.	8b--XL	.	8ff-L	.	ii7
8A-J	.	.	.	8cc-J	.	8ee-J	.	I6
[2B--X)	.	.	.	4dd-	.	[2dd-)	.	ii65
.	.	.	.	[4g-)	.	.	.	.
=88	=88	=88	=88	=88	=88	=88	=88	=88
(4B--]	.	2.f-]	.	2.g-]	.	(4dd-]	.	.
4c-	.	.	.	.	.	4cc-	.	V(4)
4c	.	.	.	.	.	4b-	.	.Fr
4c-X)	.	4e-	.	4g-	.	4cc-)	.	V
=89	=89	=89	=89	=89	=89	=89	=89	=89
4c-	.	([4F-	.	(4a-	.	1cc-	.	I64
4r	.	12F-L]	.	4c-	.	.	.	.
.	.	12A-	.	.	.	.	.	.
.	.	12B--XJ)	.	.	.	.	.	.
2r	.	([4c-	.	4a-	.	.	.	.
.	.	12c-L]	.	4c-	.	.	.	.
.	.	12e-	.	.	.	.	.	.
.	.	12f-J)	.	.	.	.	.	.
=90	=90	=90	=90	=90	=90	=90	=90	=90
2r	.	([4g-	.	4b--X	.	1ccc-	.	V65
.	.	12g-L]	.	4c-	.	.	.	.
.	.	12f	.	.	.	.	.	.
.	.	12g-J)	.	.	.	.	.	.
4r	.	([4f-X	.	4b--	.	.	.	.
(4E-	.	12f-L]	.	4c-)	.	.	.	.
.	.	12e-	.	.	.	.	.	.
.	.	12d-J)	.	.	.	.	.	.
=91	=91	=91	=91	=91	=91	=91	=91	=91
!LO:TX:b:i:t=cresc.	!	!LO:TX:b:i:t=cresc.	!	!LO:TX:b:i:t=cresc.	!	!LO:TX:a:i:t=cresc.	!	!
([4F-)	.	(4c-	.	(4a-	.	(2.ccc-	.	I
12F-L]	.	4f-	.	4c-	.	.	.	.
12A-	.	.	.	.	.	.	.	.
12B--XJ)	.	.	.	.	.	.	.	.
([4c-	.	4a-	.	4f-	.	.	.	.
12c-L]	.	4f-)	.	4c-)	.	4aaa-)	.	.
12e-	.	.	.	.	.	.	.	.
12f-J)	.	.	.	.	.	.	.	.
=92	=92	=92	=92	=92	=92	=92	=92	=92
(4e-	<	(4a-	<	(4g-	<	(4aaa-	<	iii7
4A-	.	4e-	.	4c	.	4ggg-	.	V7/vi
4d-	[ >	4A-	[ >	4d-	[ >	4fff-	[ >	vi
4G)	]]	4G) 4B-	]]	8dd-L	.	4eee-)	]]	I.V65
.	.	.	.	8b-J)	]]	.	.	.
=93	=93	=93	=93	=93	=93	=93	=93	=93
!	!	!	!LO:DY:a	!	!	!	!	!
(4A-	p	1A- 1c	p p	([4c [4a-	.	[1eee-	p	I[I
4E-	.	.	.	12cL] 12a-]	.	.	.	.
.	.	.	.	12cc	.	.	.	.
.	.	.	.	12dd-J)	.	.	.	.
4c	.	.	.	([4ee-	.	.	.	.
4E-	.	.	.	12ee-L]	.	.	.	.
.	.	.	.	12gg	.	.	.	.
.	.	.	.	12aa-J)	.	.	.	.
=94	=94	=94	=94	=94	=94	=94	=94	=94
4d-	.	1G 1B-	.	([4bb-	.	2.eee-]	.	V65
4E-	.	.	.	12bb-L]	.	.	.	.
.	.	.	.	12aaX	.	.	.	.
.	.	.	.	12bb-J)	.	.	.	.
4d-	.	.	.	([4aa-	.	.	.	.
4E-)	.	.	.	12aa-L]	.	4eee-	.	.
.	.	.	.	12gg	.	.	.	.
.	.	.	.	12ffJ)	.	.	.	.
=95	=95	=95	=95	=95	=95	=95	=95	=95
(4c	.	[4A- 4c	.	4ee-	.	(2.eee-	.	I
4E-	.	(12A-L]	.	2.c 2.a-	.	.	.	.
.	.	12c	.	.	.	.	.	.
.	.	12e-J)	.	.	.	.	.	.
4c	.	[4a-	.	.	.	.	.	.
4E-	.	(12a-L]	.	.	.	4cccc)	.	.
.	.	12cc	.	.	.	.	.	.
.	.	12dd-J)	.	.	.	.	.	.
=96	=96	=96	=96	=96	=96	=96	=96	=96
4d-	.	[4ee-	.	1B- 1g	.	(4cccc	.	V43
4E-	.	(12ee-L]	.	.	.	4bbb-	.	.
.	.	12dd	.	.	.	.	.	.
.	.	12ee-J)	.	.	.	.	.	.
4d-	.	[4e-	.	.	.	4aaa-	.	.
4E-)	.	(12e-L]	.	.	.	4ggg)	.	.
.	.	12d	.	.	.	.	.	.
.	.	12e-J)	.	.	.	.	.	.
=97	=97	=97	=97	=97	=97	=97	=97	=97
(4E-	.	4e-	.	4c [4a-	.	4aaa-	.	I
4EE-	.	2.A- 2.c	.	(12a-L]	.	2eee-	.	.
.	.	.	.	12cc	.	.	.	.
.	.	.	.	12dd-J)	.	.	.	.
4E-	.	.	.	[4ee-	.	.	.	.
4EE-)	.	.	.	(12ee-L]	.	4eee-	.	.
.	.	.	.	12gg	.	.	.	.
.	.	.	.	12aa-J)	.	.	.	.
=98	=98	=98	=98	=98	=98	=98	=98	=98
(4E-	.	2.G 2.d-	.	[4bb-	.	1eee-t	.	V65]
4EE-	.	.	.	(12bb-L]	.	.	.	.
.	.	.	.	12aaX	.	.	.	.
.	.	.	.	12bb-J)	.	.	.	.
4E-	.	.	.	[4aa-	.	.	.	.
4EE-)	.	4G 4B-	.	(12aa-L]	.	.	.	.
.	.	.	.	12gg	.	.	.	.
.	.	.	.	12ffJ)	.	.	.	.
.	.	.	.	.	.	16qqddd/LL	.	.
.	.	.	.	.	.	16qqeee-/JJ	.	.
=99	=99	=99	=99	=99	=99	=99	=99	=99
!LO:TX:b:i:t=cresc.	!	!LO:TX:b:i:t=cresc.	!	!LO:TX:b:i:t=cresc.	!	!LO:TX:a:i:t=cresc.	!	!
[4AA-	.	4A- 4c	.	4ee-	.	[2eee-	.	I
(12AA-L]	.	(12E-L	.	(12cL	.	.	.	.
12C	.	12A-	.	12e-	.	.	.	.
12E-J)	.	12cJ)	.	12a-J)	.	.	.	.
[4A-	.	(4e-	.	(4cc	.	8eee-L]	.	.
.	.	.	.	.	.	8aaa-'	.	.
(12A-L]	.	4a-)	.	(12ccL)	.	8cccc'	.	.
12B-	.	.	.	12dd-	.	.	.	.
.	.	.	.	.	.	[8eeee-J	.	.
12cJ)	.	.	.	12ee-J)	.	.	.	.
=100	=100	=100	=100	=100	=100	=100	=100	=100
[4d-	.	(4f	.	4ff	.	4eeee-]	.	IV(9)
(12d-L]	.	2ff)	.	(12fL	.	(12eeee-L	.	.
12e-	.	.	.	12g	.	12dddd-	.	IV
12fJ)	.	.	.	12a-J)	.	12ccccJ)	.	.
[4d-	.	.	.	4r	.	(12ccccL	.	.
.	.	.	.	.	.	12bbb-	.	.
.	.	.	.	.	.	12aaa-J)	.	.
(12d-L]	.	4ff	.	(12fL	.	(12aaa-L	.	.
12e-	.	.	.	12g	.	12ggg	.	.
12fJ)	.	.	.	12a-J)	.	12fffJ)	.	.
=101	=101	=101	=101	=101	=101	=101	=101	=101
[4e-	.	(4g	.	4r	.	(12fffL	.	V7
.	.	.	.	.	.	12eee-	.	.
.	.	.	.	.	.	12dddJ	.	.
(12e-L]	.	2gg)	.	(12gL	.	12fffL	.	.
12f	.	.	.	12a-	.	12eee-	.	.
12gJ)	.	.	.	12b-J)	.	12ddd-XJ)	.	.
[4f-X	.	.	.	4r	.	(12ddd-L	.	#viio2
.	.	.	.	.	.	12ccc	.	.
.	.	.	.	.	.	12ccc-XJ	.	.
(12f-L]	.	4gg	.	(12gL	.	12ddd-L	.	.
12f	.	.	.	12a-	.	12ccc	.	.
12gJ)	.	.	.	12b-J)	.	12bb-J)	.	.
=102	=102	=102	=102	=102	=102	=102	=102	=102
!LO:TX:b:i:t=dim.	!	!LO:TX:b:i:t=dim.	!	!	!	!LO:TX:b:i:t=dim.	!	!
[4f	.	(4a-	.	4r	.	(12bb-L	.	vi(4)
.	.	.	.	.	.	12aa-	.	.
.	.	.	.	.	.	12ggJ)	.	.
!	!	!	!	!LO:TX:b:i:t=dim.	!	!	!	!
(12fL]	.	12ddL	.	(12a-L	.	(12aa-L	.	.
12g	.	12ee-	.	12b-	.	12gg	.	.
12a-J)	.	12ffJ)	.	12cc-J)	.	12ffJ)	.	.
[4f	.	(4a-	.	4r	.	(12ggL	.	.
.	.	.	.	.	.	12ff	.	.
.	.	.	.	.	.	12ee-J)	.	.
(12fL]	.	12ddL	.	(12a-L	.	(12ffL	.	.
12g	.	12ee-	.	12b-	.	12ee-	.	.
12a-J)	.	12ffJ)	.	12cc-J)	.	12ddJ)	.	.
=103	=103	=103	=103	=103	=103	=103	=103	=103
4g	p	4b-	p	4b-	p	(16ddLL	p	vii
.	.	.	.	.	.	16ee-	.	.
.	.	.	.	.	.	16dd-X	.	viio
.	.	.	.	.	.	16B-JJ)	.	.
!	!LO:DY:a	!	!	!	!	!	!	!
[2.EE- [2.BB-	f f	2G	.	[2.dd- [2.bb-	f	12dd-'L	f	V7
.	.	.	.	.	.	(12B-	.	.
.	.	.	.	.	.	12ee-J)	.	.
.	.	.	.	.	.	12dd-'L	.	.
.	.	.	.	.	.	(12B-	.	.
.	.	.	.	.	.	12ee-J)	.	.
.	.	16GLL	.	.	.	12dd-'L	.	.
.	.	16A-	.	.	.	.	.	.
.	.	.	.	.	.	(12B-	.	.
.	.	16B-	.	.	.	.	.	.
.	.	.	.	.	.	12ee-J)	.	.
.	.	16A-JJ	.	.	.	.	.	.
=104	=104	=104	=104	=104	=104	=104	=104	=104
1EE-_ 1BB-_	.	[1G	.	(16dd-LL] 16bb-]	.	12dd-'L	.	.
.	.	.	.	16ccc	.	.	.	.
.	.	.	.	.	.	(12B-	.	.
.	.	.	.	16ddd-	.	.	.	.
.	.	.	.	.	.	12ee-J)	.	.
.	.	.	.	16cccJJ)	.	.	.	.
.	.	.	.	(16bb-LL	.	12dd-'L	.	.
.	.	.	.	16ccc	.	.	.	.
.	.	.	.	.	.	(12B-	.	.
.	.	.	.	16ddd-	.	.	.	.
.	.	.	.	.	.	12ee-J)	.	.
.	.	.	.	16cccJJ)	.	.	.	.
.	.	.	.	(16bb-LL	.	12dd-'L	.	.
.	.	.	.	16ccc	.	.	.	.
.	.	.	.	.	.	(12B-	.	.
.	.	.	.	16ddd-	.	.	.	.
.	.	.	.	.	.	12ee-J)	.	.
.	.	.	.	16cccJJ)	.	.	.	.
.	.	.	.	(16bb-LL	.	12dd-'L	.	.
.	.	.	.	16ccc	.	.	.	.
.	.	.	.	.	.	(12B-	.	.
.	.	.	.	16ddd-	.	.	.	.
.	.	.	.	.	.	12ee-J)	.	.
.	.	.	.	16cccJJ)	.	.	.	.
=105	=105	=105	=105	=105	=105	=105	=105	=105
4EE-] 4BB-]	.	4G]	.	4bb-	.	(16ddLL	.	.
.	.	.	.	.	.	16ee-	.	.
.	.	.	.	.	.	16dd-X	.	.
.	.	.	.	.	.	16B-JJ)	.	.
[2.EE- [2.BB-	f	(2G	f	[2.dd- [2.bb-	f	12dd-'L	f	.
.	.	.	.	.	.	(12B-	.	.
.	.	.	.	.	.	12ee-J)	.	.
.	.	.	.	.	.	12dd-'L	.	.
.	.	.	.	.	.	(12B-	.	.
.	.	.	.	.	.	12ee-J)	.	.
.	.	(16GLL)	.	.	.	12dd-'L	.	.
.	.	16A-	.	.	.	.	.	.
.	.	.	.	.	.	(12B-	.	.
.	.	16B-	.	.	.	.	.	.
.	.	.	.	.	.	12ee-J)	.	.
.	.	16A-JJ)	.	.	.	.	.	.
=106	=106	=106	=106	=106	=106	=106	=106	=106
2.EE-] 2.BB-]	.	2.G	.	(16dd-LL] 16bb-]	.	12dd-'L	.	.
.	.	.	.	16ccc	.	.	.	.
.	.	.	.	.	.	(12B-	.	.
.	.	.	.	16ddd-	.	.	.	.
.	.	.	.	.	.	12ee-J)	.	.
.	.	.	.	16cccJJ)	.	.	.	.
.	.	.	.	(16bb-LL	.	12dd-'L	.	.
.	.	.	.	16ccc	.	.	.	.
.	.	.	.	.	.	(12B-	.	.
.	.	.	.	16ddd-	.	.	.	.
.	.	.	.	.	.	12ee-J)	.	.
.	.	.	.	16cccJJ)	.	.	.	.
.	.	.	.	(16bb-LL	.	12dd-'L	.	.
.	.	.	.	16ccc	.	.	.	.
.	.	.	.	.	.	(12B-	.	.
.	.	.	.	16ddd-	.	.	.	.
.	.	.	.	.	.	12ee-J)	.	.
.	.	.	.	16bb-JJ)	.	.	.	.
8EE-'L	.	8E-'L	.	8eee-'L	.	(16e-LL	.	.
.	.	.	.	.	.	16ee-)	.	.
8FF-'J	.	8F-'J	.	8ff-'J	.	(16f-	.	.
.	.	.	.	.	.	16ff-JJ)	.	.
=107	=107	=107	=107	=107	=107	=107	=107	=107
!	!LO:DY:a	!	!	!	!LO:DY:a	!	!	!
4FF	ff ff	8F'L	.	4ff'	ff ff	8fL	.	V/ii
.	.	16GL	.	.	.	16gL	.	.
.	.	16AXJJ	.	.	.	16aXJJ	.	.
4r	.	16B-LL	.	4r	.	16b-LL	.	.
.	.	16c	.	.	.	16cc	.	.
.	.	16d	.	.	.	16dd	.	.
.	.	16e-JJ	.	.	.	16ee-JJ	.	.
8FFL	.	16fLL	.	8fL	.	8ffL	.	.
.	.	16F	.	.	.	.	.	.
16GGL	.	16G	.	16gL	.	16ggL	.	.
16AAXJJ	.	16AJJ	.	16aXJJ	.	16aaXJJ	.	.
16BB-LL	.	16B-LL	.	16b-LL	.	16bb-LL	.	.
16C	.	16c	.	16cc	.	16ccc	.	.
16D	.	16d	.	16dd	.	16ddd	.	.
16E-JJ	.	16e-JJ	.	16ee-JJ	.	16eee-JJ	.	.
=108	=108	=108	=108	=108	=108	=108	=108	=108
4F'	.	4f'	.	4ff'	.	4fff'	.	.
4B-'	.	4b-'	.	4bb-'	.	4bbb-'	.	ii
2r	.	2r	.	2r	.	2r	.	.
=109	=109	=109	=109	=109	=109	=109	=109	=109
!	!	!	!	!	!LO:DY:a	!	!LO:DY:a	!
4r	.	4r	.	(4aaX	p	(4aaaX	p	V6/ii
!	!LO:DY:a	!	!	!	!	!	!	!
2.d-	p	(2f	p	2bb-	.	2bbb-	.	ii6
.	.	4dd-)	.	4ff)	.	4fff)	.	.
=110	=110	=110	=110	=110	=110	=110	=110	=110
2r	.	2r	.	(4ff	.	(4fff	.	.
.	.	.	.	2ff-X	.	2fff-X	.	V(64)
4e-	.	(4a- 4cc	.	.	.	.	.	.
4e-	.	4b-) 4dd-	.	4ee-)	.	4eee-)	.	V7
=111	=111	=111	=111	=111	=111	=111	=111	=111
2r	.	2r	.	(4ff	.	(4fff	.	.
.	.	.	.	2ff-X	.	2fff-X	.	V(64)
(4e-	.	(4a- 4cc	.	.	.	.	.	.
4E-)	.	8b-L) 8dd-	.	8ee-L	.	4eee-)	.	V7
.	.	8B-J	.	8gJ)	.	.	.	.
=112	=112	=112	=112	=112	=112	=112	=112	=112
1AA-	.	(16cLL	.	(16a-LL	.	1eee-	.	I[I
.	.	16d-	.	16b-	.	.	.	.
.	.	16e-	.	16cc	.	.	.	.
.	.	16d-JJ	.	16b-JJ	.	.	.	.
.	.	16cLL	.	16a-LL	.	.	.	.
.	.	16d-	.	16b-	.	.	.	.
.	.	16e-	.	16cc	.	.	.	.
.	.	16d-JJ	.	16b-JJ	.	.	.	.
.	.	16cLL	.	16a-LL	.	.	.	.
.	.	16d-	.	16b-	.	.	.	.
.	.	16e-	.	16cc	.	.	.	.
.	.	16d-JJ	.	16b-JJ	.	.	.	.
.	.	16cLL	.	16a-LL	.	.	.	.
.	.	16d-	.	16b-	.	.	.	.
.	.	16e-	.	16cc	.	.	.	.
.	.	16cJJ)	.	16a-JJ)	.	.	.	.
=113	=113	=113	=113	=113	=113	=113	=113	=113
(16AA-LL	.	(2.B-	.	(2.g	.	(4eee-	.	V43
16BB-	.	.	.	.	.	.	.	.
16AA-	.	.	.	.	.	.	.	.
16BB-JJ	.	.	.	.	.	.	.	.
16AA-LL	.	.	.	.	.	4ddd-	.	.
16BB-	.	.	.	.	.	.	.	.
16AA-	.	.	.	.	.	.	.	.
16BB-JJ	.	.	.	.	.	.	.	.
16AA-LL	.	.	.	.	.	4bb-	.	.
16BB-	.	.	.	.	.	.	.	.
16AA-	.	.	.	.	.	.	.	.
16BB-JJ	.	.	.	.	.	.	.	.
16AA-LL	.	8d-L	.	8b-L	.	8ggL	.	.
16BB-	.	.	.	.	.	.	.	.
16AA-	.	8B-J)	.	8gJ)	.	8eee-J)	.	.
16BB-JJ)	.	.	.	.	.	.	.	.
=114	=114	=114	=114	=114	=114	=114	=114	=114
1AA-	.	(16cLL	.	(16a-LL	.	[2eee-	.	I
.	.	16A-	.	16c	.	.	.	.
.	.	16c	.	16e-	.	.	.	.
.	.	16B-JJ	.	16d-JJ	.	.	.	.
.	.	16A-LL	.	16cLL	.	.	.	.
.	.	16B-	.	16d-	.	.	.	.
.	.	16c	.	16e-	.	.	.	.
.	.	16B-JJ	.	16d-JJ	.	.	.	.
.	.	16A-LL	.	16cLL	.	8eee-L]	.	.
.	.	16B-	.	16d-	.	.	.	.
.	.	16c	.	16e-	.	(8eee-	.	.
.	.	16B-JJ	.	16d-JJ	.	.	.	.
.	.	16A-LL	.	16cLL	.	8fff	.	.
.	.	16B-	.	16d-	.	.	.	.
.	.	16c	.	16e-	.	8eee-J)	.	.
.	.	16A-JJ)	.	16cJJ)	.	.	.	.
=115	=115	=115	=115	=115	=115	=115	=115	=115
(16AA-LL	.	2.B-	.	2.d-	.	(4eee-	.	V43
16BB-	.	.	.	.	.	.	.	.
16AA-	.	.	.	.	.	.	.	.
16BB-JJ	.	.	.	.	.	.	.	.
16AA-LL	.	.	.	.	.	4ddd-	.	.
16BB-	.	.	.	.	.	.	.	.
16AA-	.	.	.	.	.	.	.	.
16BB-JJ	.	.	.	.	.	.	.	.
16AA-LL	.	.	.	.	.	4bb-	.	.
16BB-	.	.	.	.	.	.	.	.
16AA-	.	.	.	.	.	.	.	.
16BB-JJ	.	.	.	.	.	.	.	.
16AA-LL	.	(8B-L	.	(8d-L	.	8ggL	.	.
16BB-	.	.	.	.	.	.	.	.
16AA-	.	8GJ)	.	8B-J)	.	8eee-J)	.	.
16BB-JJ)	.	.	.	.	.	.	.	.
=116	=116	=116	=116	=116	=116	=116	=116	=116
(16AA-LL	.	2A-'	.	2c'	.	2eee-'	.	I
16BB-	.	.	.	.	.	.	.	.
16AA-	.	.	.	.	.	.	.	.
16BB-JJ	.	.	.	.	.	.	.	.
16AA-LL	.	.	.	.	.	.	.	.
16BB-	.	.	.	.	.	.	.	.
16AA-	.	.	.	.	.	.	.	.
16BB-JJ)	.	.	.	.	.	.	.	.
(16AA-LL	.	2A-'	.	2c' 2a-	.	2ee-'	.	.
16BB-	.	.	.	.	.	.	.	.
16AA-	.	.	.	.	.	.	.	.
16BB-JJ	.	.	.	.	.	.	.	.
16AA-LL	.	.	.	.	.	.	.	.
16BB-	.	.	.	.	.	.	.	.
16AA-	.	.	.	.	.	.	.	.
16BB-JJ)	.	.	.	.	.	.	.	.
=117	=117	=117	=117	=117	=117	=117	=117	=117
(16AA-LL	.	2A-'	.	2c' 2a-	.	2ee-'	.	.
16BB-	.	.	.	.	.	.	.	.
16AA-	.	.	.	.	.	.	.	.
16BB-JJ	.	.	.	.	.	.	.	.
16AA-LL	.	.	.	.	.	.	.	.
16BB-	.	.	.	.	.	.	.	.
16AA-	.	.	.	.	.	.	.	.
16BB-JJ)	.	.	.	.	.	.	.	.
!LO:TX:b:i:t=cresc.	!	!LO:TX:b:i:t=cresc.	!	!LO:TX:a:i:t=cresc.	!	!LO:TX:b:i:t=cresc.	!	!
12AA-L	.	12A-L	.	12a-L	.	12aa-L	.	I]
12AA-	.	12A-	.	12a-	.	12aa-	.	.
12AA-J	.	12A-J	.	12a-J	.	12aa-J	.	.
12BB--XL	.	12B--XL	.	12b--XL	.	12bb--XL	.	.bII
12BB--	.	12B--	.	12b--	.	12bb--	.	.
12BB--J	.	12B--J	.	12b--J	.	12bb--J	.	.
=118	=118	=118	=118	=118	=118	=118	=118	=118
[2BB-	.	[2B-	.	[2b-	.	[2bb-	.	II
8BB-L]	.	8B-L]	.	8b-L]	.	8bb-L]	.	.
16CL	.	16cL	.	16ccL	.	16cccL	.	.
16DJJ	.	16dJJ	.	16ddJJ	.	16dddJJ	.	.
16E-LL	.	16e-LL	.	16ee-LL	.	16eee-LL	.	.
16F	.	16f	.	16ff	.	16fff	.	.
16G	.	16g	.	16gg	.	16ggg	.	.
16AXJJ	.	16aXJJ	.	16aaXJJ	.	16aaaXJJ	.	.
=119	=119	=119	=119	=119	=119	=119	=119	=119
4B-'	.	4b-'	.	4bb-'	.	4bbb-'	.	.
4r	.	4r	.	4r	.	4r	.	.
2r	.	2r	.	2r	.	2r	.	.
=120	=120	=120	=120	=120	=120	=120	=120	=120
!	!	!	!	!	!LO:DY:a	!	!LO:DY:a	!
4r	.	4r	.	4aaX	p	4aaaX	p	V6/ii
2.d-	p	2f	p	2bb-	.	2bbb-	.	ii6
.	.	4dd-	.	4ff	.	4fff	.	.
=121	=121	=121	=121	=121	=121	=121	=121	=121
2r	.	2r	.	(4ff	.	(4fff	.	.
.	.	.	.	2ff-X	.	2fff-X	.	V(64)
4e-	.	(4a- 4cc	.	.	.	.	.	.
4e-	.	4b-) 4dd-	.	4ee-)	.	4eee-)	.	V7
=122	=122	=122	=122	=122	=122	=122	=122	=122
2r	.	2r	.	(4ff	.	(4fff	.	.
.	.	.	.	2ff-X	.	2fff-X	.	V(64)
4e-	.	(4a- 4cc	.	.	.	.	.	.
4E-	.	8b-L) 8dd-	.	8ee-L	.	4eee-)	.	V7
.	.	8B-J	.	8gJ)	.	.	.	.
=123	=123	=123	=123	=123	=123	=123	=123	=123
1AA-	.	(16cLL	.	(16a-LL	.	1eee-	.	I[I
.	.	16d-	.	16b-	.	.	.	.
.	.	16e-	.	16cc	.	.	.	.
.	.	16d-JJ	.	16b-JJ	.	.	.	.
.	.	16cLL	.	16a-LL	.	.	.	.
.	.	16d-	.	16b-	.	.	.	.
.	.	16e-	.	16cc	.	.	.	.
.	.	16d-JJ	.	16b-JJ	.	.	.	.
.	.	16cLL	.	16a-LL	.	.	.	.
.	.	16d-	.	16b-	.	.	.	.
.	.	16e-	.	16cc	.	.	.	.
.	.	16d-JJ	.	16b-JJ	.	.	.	.
.	.	16cLL	.	16a-LL	.	.	.	.
.	.	16d-	.	16b-	.	.	.	.
.	.	16e-	.	16cc	.	.	.	.
.	.	16cJJ)	.	16a-JJ)	.	.	.	.
=124	=124	=124	=124	=124	=124	=124	=124	=124
(16AA-LL	.	(2.B-	.	(2.g	.	(4eee-	.	V43
16BB-	.	.	.	.	.	.	.	.
16AA-	.	.	.	.	.	.	.	.
16BB-JJ	.	.	.	.	.	.	.	.
16AA-LL	.	.	.	.	.	4ddd-	.	.
16BB-	.	.	.	.	.	.	.	.
16AA-	.	.	.	.	.	.	.	.
16BB-JJ	.	.	.	.	.	.	.	.
16AA-LL	.	.	.	.	.	4bb-	.	.
16BB-	.	.	.	.	.	.	.	.
16AA-	.	.	.	.	.	.	.	.
16BB-JJ	.	.	.	.	.	.	.	.
16AA-LL	.	8d-L	.	8b-L	.	8ggL	.	.
16BB-	.	.	.	.	.	.	.	.
16AA-	.	8B-J)	.	8gJ)	.	8eee-J)	.	.
16BB-JJ)	.	.	.	.	.	.	.	.
=125	=125	=125	=125	=125	=125	=125	=125	=125
1AA-	.	(16cLL	.	(16a-LL	.	4.eee-	.	I
.	.	16A-	.	16c	.	.	.	.
.	.	16c	.	16e-	.	.	.	.
.	.	16B-JJ	.	16d-JJ	.	.	.	.
.	.	16A-LL	.	16cLL	.	.	.	.
.	.	16B-	.	16d-	.	.	.	.
.	.	16c	.	16e-	.	[8ee-	.	.
.	.	16B-JJ	.	16d-JJ	.	.	.	.
.	.	16A-LL	.	16cLL	.	(8ee-L]	.	.
.	.	16B-	.	16d-	.	.	.	.
.	.	16c	.	16e-	.	8ee-	.	.
.	.	16B-JJ	.	16d-JJ	.	.	.	.
.	.	16A-LL	.	16cLL	.	8ff	.	.
.	.	16B-	.	16d-	.	.	.	.
.	.	16c	.	16e-	.	8ee-J)	.	.
.	.	16A-JJ)	.	16cJJ)	.	.	.	.
=126	=126	=126	=126	=126	=126	=126	=126	=126
(16AA-LL	.	2.G 2.B-	.	2.d-	.	(4ee-	.	V43
16BB-	.	.	.	.	.	.	.	.
16AA-	.	.	.	.	.	.	.	.
16BB-JJ	.	.	.	.	.	.	.	.
16AA-LL	.	.	.	.	.	4dd-	.	.
16BB-	.	.	.	.	.	.	.	.
16AA-	.	.	.	.	.	.	.	.
16BB-JJ	.	.	.	.	.	.	.	.
16AA-LL	.	.	.	.	.	4b-	.	.
16BB-	.	.	.	.	.	.	.	.
16AA-	.	.	.	.	.	.	.	.
16BB-JJ	.	.	.	.	.	.	.	.
16AA-LL	.	(8B-L	.	(8d-L	.	8gL	.	.
16BB-	.	.	.	.	.	.	.	.
16AA-	.	8GJ)	.	8B-J)	.	8e-J)	.	.
16BB-JJ)	.	.	.	.	.	.	.	.
=127	=127	=127	=127	=127	=127	=127	=127	=127
8AA-L	pp	4c	pp	4e-	pp	4a-	pp	I]
(16e-L	.	.	.	.	.	.	.	.
16fJJ	.	.	.	.	.	.	.	.
16e-LL	.	4r	.	4r	.	4r	.	.
16f	.	.	.	.	.	.	.	.
16e-	.	.	.	.	.	.	.	.
16fJJ)	.	.	.	.	.	.	.	.
4e-	.	2r	.	4g	.	4b-	.	V
4r	.	.	.	4r	.	4r	.	.
=128	=128	=128	=128	=128	=128	=128	=128	=128
4A-	.	8r	.	4e- 4a-	.	4cc	.	I
.	.	(16E-LL	.	.	.	.	.	.
.	.	16FJJ	.	.	.	.	.	.
4r	.	16E-LL	.	4r	.	4r	.	.
.	.	16F	.	.	.	.	.	.
.	.	16E-	.	.	.	.	.	.
.	.	16FJJ)	.	.	.	.	.	.
4E-	.	4E-	.	4g	.	4ee-	.	V
4r	.	4r	.	4r	.	4r	.	.
=129	=129	=129	=129	=129	=129	=129	=129	=129
!	!	!	!	!	!LO:DY:a	!	!	!
(16F-LL	ff	1f-	ff	1c- 1a-	ff ff	1a- 1ff- 1aa-	.	.i.VI
16G-	.	.	.	.	.	.	.	.
16A-	.	.	.	.	.	.	.	.
16G-JJ)	.	.	.	.	.	.	.	.
8F-'L	.	.	.	.	.	.	.	.
8E-'J	.	.	.	.	.	.	.	.
8D-'L	.	.	.	.	.	.	.	.
8C-'	.	.	.	.	.	.	.	.
8D-'	.	.	.	.	.	.	.	.
8E-'J	.	.	.	.	.	.	.	.
=130	=130	=130	=130	=130	=130	=130	=130	=130
(16F-LL	sf	[1a-	sf	[1ccc-	sf	16f-LL	.	.
16G-	.	.	.	.	.	16g-	.	.
16A-	.	.	.	.	.	16a-	.	.
16G-JJ)	.	.	.	.	.	16g-JJ	.	.
8F-'L	.	.	.	.	.	8f-'L	.	.
8E-'J	.	.	.	.	.	8e-'J	.	.
8D-'L	.	.	.	.	.	8d-'L	.	.
8C-'	.	.	.	.	.	8c-'	.	.
8D-'	.	.	.	.	.	8d-'	.	.
8E-'J	.	.	.	.	.	8e-'J	.	.
=131	=131	=131	=131	=131	=131	=131	=131	=131
8F-L	.	4a-]	.	4ccc-]	.	8f-L	.	.
8A-	.	.	.	.	.	8a-	.	.
8c-	sf	[2.a-	sf	[2.ccc-	sf	8cc-	sf	.
8f-J	.	.	.	.	.	8ff-J	.	.
8AA-L	.	.	.	.	.	8a-L	.	VI6
8C-	.	.	.	.	.	8cc-	.	.
8F-	.	.	.	.	.	8ff-	.	.
8A-J	.	.	.	.	.	8aa-J	.	.
=132	=132	=132	=132	=132	=132	=132	=132	=132
8C-L	.	4a-]	.	4ccc-]	.	8cc-L	.	VI64
8F-	.	.	.	.	.	8ff-	.	.
8A-	sf	[2.a-	sf	[2.ccc-	sf	8aa-	sf	.
8c-J	.	.	.	.	.	8ccc-J	.	.
8f-L	.	.	.	.	.	8fff-L	.	.
8c-	.	.	.	.	.	8ccc-	.	.
8A-	.	.	.	.	.	8aa-	.	.
8F-J	.	.	.	.	.	8ff-J	.	.
=133	=133	=133	=133	=133	=133	=133	=133	=133
8DL	.	4a-]	.	4ccc-]	.	8ddL	.	#viio7/V
8F	.	.	.	.	.	8ff	.	.
!	!	!	!	!	!LO:DY:a	!	!	!
8A-	sf	[2.a-	sf	[2.ccc-	sf	8aa-	sf	.
8dJ	.	.	.	.	.	8dddJ	.	.
8fL	.	.	.	.	.	8fffL	.	.
8d	.	.	.	.	.	8ddd	.	.
8A-	.	.	.	.	.	8aa-	.	.
8FJ	.	.	.	.	.	8ffJ	.	.
=134	=134	=134	=134	=134	=134	=134	=134	=134
8BB-L	.	4a-]	.	4ccc-]	.	8B-L	.	V7/V
8F	.	.	.	.	.	8ff	.	.
8B-	sf	2a-	sf	[2.bb-	sf	8bb-	sf	.
8dJ	.	.	.	.	.	8dddJ	.	.
8fL	.	.	.	.	.	8fffL	.	.
8d	.	.	.	.	.	8ddd	.	.
8g	.	[4e- [4g	.	.	.	8ggg	.	V
8e-J	.	.	.	.	.	8eee-J	.	.
=135	=135	=135	=135	=135	=135	=135	=135	=135
8EE-L	.	4e-] 4g]	.	4bb-]	.	8gggL	.	.
8GG	.	.	.	.	.	8eee-	.	.
8BB-	sf	4g 4ee-	sf	4bb-	sf	8bb-	sf	.
8E-J	.	.	.	.	.	8ggJ	.	.
8EE-L	sf	[2b--X	sf	[2ccc	sf	8gg-XL	sf	#viio65/iv
8GG-X	.	.	.	.	.	8ee-	.	.
8C	.	.	.	.	.	8cc	.	.
8E-J	.	.	.	.	.	8g-J	.	.
=136	=136	=136	=136	=136	=136	=136	=136	=136
8EE-L	.	4b--]	.	4ccc]	.	8bb--XL	.	.
8GG-	.	.	.	.	.	8gg-	.	.
!	!	!	!	!	!LO:DY:a	!	!	!
8C	sf	4b--X	sf	4ccc	sf sf	8dd	.	.
8E-J	.	.	.	.	.	8b--XJ	.	.
8D-L	sf	[2b-	sf	[2ddd-	sf	8bb-L	sf	iio65
8F-	.	.	.	.	.	8ff-	.	.
8B-	.	.	.	.	.	8dd-X	.	.
8d-J	.	.	.	.	.	8b-J	.	.
=137	=137	=137	=137	=137	=137	=137	=137	=137
8D-L	sf	4b-]	.	4ddd-]	.	8bb-L	sf	.
8F-	.	.	.	.	.	8ff-	.	.
8B-	sf	4b-	sf	4ddd-	sf	8dd-	sf	.
8d-J	.	.	.	.	.	8b-J	.	.
8E-L	sf	4a-	sf	4ccc-	sf	8aa-L	sf	V(64)
8e-	.	.	.	.	.	8ee-	.	.
8EE-	sf	4g	sf	4bb-	sf	8eee-	sf	V
8E-J	.	.	.	.	.	8ee-J	.	.
=138	=138	=138	=138	=138	=138	=138	=138	=138
8AA-'L	ff	(16A-LL	ff	(16aa-LL	ff	8eee-'L	ff	i[i
.	.	16B-	.	16bb-	.	.	.	.
8C-	.	16c-	.	16ccc-	.	8ccc-	.	.
.	.	16B-JJ)	.	16bb-JJ)	.	.	.	.
8E-	.	8A-	.	8aa-	.	8aa-	.	.
8A-J	.	8r	.	8r	.	8ee-J	.	.
8AA-'L	.	(16G-LL	.	(16gg-LL	.	8eee-'L	.	V7(+9)/iv
.	.	16A-	.	16aa-	.	.	.	.
8C	.	16B--X	.	16bb--X	.	8ccc	.	.
.	.	16A-JJ)	.	16aa-JJ)	.	.	.	.
8E-	.	8G-	.	8gg-	.	8gg-	.	.
8A-J	.	8r	.	8r	.	8ee-J	.	.
=139	=139	=139	=139	=139	=139	=139	=139	=139
8AA-'L	.	(16F-LL	.	(16ff-LL	.	8eee-'L	.	iv
.	.	16G-	.	16gg-	.	.	.	.
8D-	.	16A-	.	16aa-	.	8aa-	.	.
.	.	16G-JJ)	.	16gg-JJ)	.	.	.	.
8F-	.	8F-	.	8ff-	.	8ff-	.	.
8A-J	.	8r	.	8r	.	8dd-J	.	.
8AA-'L	.	(16d-LL	.	(16dd-LL	.	8ddd-'L	.	#vii43
.	.	16e-	.	16ee-	.	.	.	.
8D-	.	16f-	.	16ff-	.	8gg	.	.
.	.	16e-JJ)	.	16ee-JJ)	.	.	.	.
8F-	.	8d-	.	8dd-	.	8ff-	.	.
8A-J	.	8r	.	8r	.	8b-J	.	.
=140	=140	=140	=140	=140	=140	=140	=140	=140
4AA-	.	(16A-LL	.	8bb-	.	8ddd-	.	i(94)
.	.	16B-	.	.	.	.	.	.
.	.	16c-	.	4aa-	.	4ccc-	.	i
.	.	16B-JJ)	.	.	.	.	.	.
4r	.	8A-	.	.	.	.	.	.
.	.	8r	.	8aa-	.	8ccc-	.	.
2r	.	(16A-LL	.	8r	.	8r	.	.
.	.	16B-	.	.	.	.	.	.
.	.	16c-	.	4gg	.	4bb-	.	i(9#7)
.	.	16B-JJ)	.	.	.	.	.	.
.	.	8A-	.	.	.	.	.	.
.	.	8r	.	8aa-	.	8ccc-	.	i
=141	=141	=141	=141	=141	=141	=141	=141	=141
!	!LO:DY:a	!	!	!	!	!	!	!
2r	ff	(16A-LL	.	8r	.	8r	.	.
.	.	16B-	.	.	.	.	.	.
.	.	16c-	.	4bb-	.	4ddd-	.	i(9)
.	.	16B-JJ)	.	.	.	.	.	.
.	.	8A-	.	.	.	.	.	.
.	.	8r	.	8ccc-	.	8eee-	.	i
2g	.	(16A-LL	.	8r	.	8r	.	V6
.	.	16B-	.	.	.	.	.	.
.	.	16c-	.	4gg	.	4eee-	.	.
.	.	16B-JJ)	.	.	.	.	.	.
.	.	8A-	.	.	.	.	.	.
.	.	8r	.	8gg	.	8bb-	.	.
=142	=142	=142	=142	=142	=142	=142	=142	=142
4a-	.	(16A-LL	.	8r	.	8r	.	i(94)
.	.	16B-	.	.	.	.	.	.
.	.	16c-	.	4bb-	.	4ddd-	.	.
.	.	16B-JJ)	.	.	.	.	.	.
4r	.	8A-	.	.	.	.	.	.
.	.	8r	.	8aa-	.	8ccc-	.	i
2r	.	(16A-LL	.	8r	.	8r	.	.
.	.	16B-	.	.	.	.	.	.
.	.	16c-	.	4gg	.	4bb-	.	i(9#7)
.	.	16B-JJ)	.	.	.	.	.	.
.	.	8A-	.	.	.	.	.	.
.	.	8r	.	8aa-	.	8ccc-	.	i
=143	=143	=143	=143	=143	=143	=143	=143	=143
2r	.	(16A-LL	.	8r	.	8r	.	.
.	.	16B-	.	.	.	.	.	.
.	.	16c-	.	4bb-	.	4ddd-	.	i(94)
.	.	16B-JJ)	.	.	.	.	.	.
.	.	8A-	.	.	.	.	.	.
.	.	8r	.	8ccc-	.	8eee-	.	i
2g	.	(16A-LL	.	8r	.	8r	.	#viio7
.	.	16B-	.	.	.	.	.	.
.	.	16c-	.	4ddd-	.	4fff-	.	.
.	.	16B-JJ)	.	.	.	.	.	.
.	.	8A-	.	.	.	.	.	.
.	.	8r	.	8bb-	.	8ggg	.	.
=144	=144	=144	=144	=144	=144	=144	=144	=144
(4a-	.	(16A-LL	.	8r	.	8r	.	i]
.	.	16B-	.	.	.	.	.	.
.	.	16c-	.	4ccc-	.	4aaa-	.	i
.	.	16B-JJ	.	.	.	.	.	.
[2.e-)	.	16A-LL	.	.	.	.	.	.
.	.	16B-	.	.	.	.	.	.
.	.	16c-	.	8aa-	.	8aa-	.	.
.	.	16B-JJ	.	.	.	.	.	.
.	.	16A-LL	.	4r	.	4r	.	.
.	.	16B-	.	.	.	.	.	.
.	.	16c-	.	.	.	.	.	.
.	.	16B-JJ	.	.	.	.	.	.
.	.	16A-LL	.	(16a-LL	.	(16a-LL	.	.
.	.	16B-	.	16b-	.	16b-	.	.
.	.	16c-	.	16cc-	.	16cc-	.	.
.	.	16B-JJ)	.	16b-JJ)	.	16b-JJ)	.	.
=145	=145	=145	=145	=145	=145	=145	=145	=145
!LO:TX:b:i:t=dim.	!	!LO:TX:b:i:t=dim.	!	!LO:TX:b:i:t=dim.	!	!LO:TX:b:i:t=dim.	!	!
4e-]	.	4A-	.	4a-	.	4a-	.	.
[2.c-	.	(16A-LL	.	(16a-LL	.	(16a-LL	.	.
.	.	16B-	.	16b-	.	16b-	.	.
.	.	16c-	.	16cc-	.	16cc-	.	.
!	!	!LO:TX:b:t=  - - - - - - - - - - - - - - - - - - - - - - - - - - -	!	!LO:TX:b:t=  - - - - - - - - - - - - - - - - - - - - - - - - - - -	!	!LO:TX:b:t=  - - - - - - - - - - - - - - - - - - - - - - - - - - -	!	!
.	.	16B-JJ)	.	16b-JJ)	.	16b-JJ)	.	.
.	.	4A-	.	4a-	.	4a-	.	.
.	.	(16A-LL	.	(16a-LL	.	(16a-LL	.	.
.	.	16B-	.	16b-	.	16b-	.	.
.	.	16c-	.	16cc-	.	16cc-	.	.
.	.	16B-JJ)	.	16b-JJ)	.	16b-JJ)	.	.
=146	=146	=146	=146	=146	=146	=146	=146	=146
!LO:TX:b:t=  - - - - - - - - - - - - - - - - - - - - - - - - - - -	!	!	!	!	!	!	!	!
4c-]	.	(16A-LL	.	(16a-LL	.	(16a-LL	.	.
.	.	16B-	.	16b-	.	16b-	.	.
.	.	16c-	.	16cc-	.	16cc-	.	.
.	.	16B-JJ)	.	16b-JJ)	.	16b-JJ)	.	.
2A-	.	8A-'L	.	8a-'L	.	8a-'L	.	.
.	.	8G-'J	.	8g-'J	.	8g-'J	.	.
.	.	8F-'L	.	8f-'L	.	8f-'L	.	.
.	.	8E-'	.	8e-'	.	8e-'	.	.
[4E-	.	8F'	.	8f'	.	8f'	.	V
.	.	8G'J	.	8g'J	.	8g'J	.	.
=147	=147	=147	=147	=147	=147	=147	=147	=147
!LO:TX:b:t=  - - - - - - - - - - - - - - - - - - - - - - - - - - -	!	!LO:TX:b:t=  - - - - - - - - - - - - - - - - - - - - - - - - - - -	!	!LO:TX:b:t=  - - - - - - - - - - - - - - - - - - - - - - - - - - -	!	!LO:TX:b:t=  - - - - - - - - - - - - - - - - - - - - - - - - - - -	!	!
4E-]	.	(16A-LL	.	(16a-LL	.	(16a-LL	.	i64
.	.	16B-	.	16b-	.	16b-	.	.
.	.	16c-	.	16cc-	.	16cc-	.	.
.	.	16B-JJ)	.	16b-JJ)	.	16b-JJ)	.	.
2C-	.	8A-'L	.	8a-'L	.	8a-'L	.	i6
.	.	8G-'J	.	8g-'J	.	8g-'J	.	.
.	.	8F-'L	.	8f-'L	.	8f-'L	.	.
.	.	8E-'	.	8e-'	.	8e-'	.	.
[4AA-	.	8F'	.	8f'	.	8f'	.	.
.	.	8G'J	.	8g'J	.	8g'J	.	.
=148	=148	=148	=148	=148	=148	=148	=148	=148
!LO:TX:b:i:t=dim.	!	!LO:TX:b:i:t=dim.	!	!LO:TX:b:i:t=dim.	!	!LO:TX:b:i:t=dim.	!	!
4AA-]	.	4A-	.	4a-	.	4a-	.	i\\
(4AA-	.	4r	.	4r	.	4r	.	.
4FF-	.	4r	.	4r	.	4r	.	VI
4EE-)	.	(4G	.	(4d-	.	(4b-	.	V7
=149	=149	=149	=149	=149	=149	=149	=149	=149
4r	.	4A-)	.	4c-)	.	4a-)	.	i
(4AA-	.	4r	.	4r	.	4r	.	.
4FF-	.	4r	.	4r	.	4r	.	VI
4EE-)	.	4G	.	4d-	.	4b-	.	V7
=150	=150	=150	=150	=150	=150	=150	=150	=150
!	!LO:DY:a	!	!LO:DY:a	!	!	!	!	!
4r	pp pp	(2.G	pp	(2.d-	.	(2.b-	pp	V7
(4FF-	.	.	.	.	.	.	.	.
4EE-	.	.	.	.	.	.	.	.
4E-	.	4e-	.	4e-	.	4ee-	.	.
=151	=151	=151	=151	=151	=151	=151	=151	=151
4AA-)	.	4A-)	.	4a-)	.	4a-)	.	i\\
4r	.	4r	.	4r	.	4r	.	.
2r	.	2r	.	2r	.	2r	.	.
==	==	==	==	==	==	==	==	==
*-	*-	*-	*-	*-	*-	*-	*-	*-
!!!system-decoration: [(s1,s2,s3,s4)]
